(Exported by FreeCAD)
(Post Processor: linuxcnc_post)
(Output Time:2018-12-30 02:26:39.844856)
(begin preamble)
G17 G54 G40 G49 G80 G90
G21
(begin operation: Default Tool)
(machine: not set, mm/min)
(Default Tool)
M6 T1
M3 S0
(finish operation: Default Tool)
(begin operation: Pocket_Shape)
(machine: not set, mm/min)
(Pocket_Shape)
G0 Z8.000
G0 X20.047 Y123.997
G0 Z6.000
G1 X20.047 Y123.997 Z-0.170 F199.800
G2 X18.221 Y121.859 Z-0.170 I-0.997 J-0.997 F1000.200
G2 X17.909 Y123.829 Z-0.170 I0.829 J1.141 F1000.200
G2 X19.879 Y124.141 Z-0.170 I1.141 J-0.829 F1000.200
G2 X20.047 Y123.997 Z-0.170 I-0.829 J-1.141 F1000.200
G1 X20.047 Y123.997 Z-1.500 F199.800
G2 X18.221 Y121.859 Z-1.500 I-0.997 J-0.997 F1000.200
G2 X17.909 Y123.829 Z-1.500 I0.829 J1.141 F1000.200
G2 X19.879 Y124.141 Z-1.500 I1.141 J-0.829 F1000.200
G2 X20.047 Y123.997 Z-1.500 I-0.829 J-1.141 F1000.200
G0 Z8.000
G0 X20.047 Y103.997
G0 Z6.000
G1 X20.047 Y103.997 Z-0.170 F199.800
G2 X20.191 Y102.171 Z-0.170 I-0.997 J-0.997 F1000.200
G2 X17.909 Y103.829 Z-0.170 I-1.141 J0.829 F1000.200
G2 X20.047 Y103.997 Z-0.170 I1.141 J-0.829 F1000.200
G1 X20.047 Y103.997 Z-1.500 F199.800
G2 X20.191 Y102.171 Z-1.500 I-0.997 J-0.997 F1000.200
G2 X17.909 Y103.829 Z-1.500 I-1.141 J0.829 F1000.200
G2 X20.047 Y103.997 Z-1.500 I1.141 J-0.829 F1000.200
G0 Z8.000
G0 X20.047 Y143.997
G0 Z6.000
G1 X20.047 Y143.997 Z-0.170 F199.800
G2 X20.191 Y142.171 Z-0.170 I-0.997 J-0.997 F1000.200
G2 X17.909 Y143.829 Z-0.170 I-1.141 J0.829 F1000.200
G2 X20.047 Y143.997 Z-0.170 I1.141 J-0.829 F1000.200
G1 X20.047 Y143.997 Z-1.500 F199.800
G2 X20.191 Y142.171 Z-1.500 I-0.997 J-0.997 F1000.200
G2 X17.909 Y143.829 Z-1.500 I-1.141 J0.829 F1000.200
G2 X20.047 Y143.997 Z-1.500 I1.141 J-0.829 F1000.200
G0 Z8.000
G0 X20.047 Y163.997
G0 Z6.000
G1 X20.047 Y163.997 Z-0.170 F199.800
G2 X20.191 Y162.171 Z-0.170 I-0.997 J-0.997 F1000.200
G2 X17.909 Y163.829 Z-0.170 I-1.141 J0.829 F1000.200
G2 X20.047 Y163.997 Z-0.170 I1.141 J-0.829 F1000.200
G1 X20.047 Y163.997 Z-1.500 F199.800
G2 X20.191 Y162.171 Z-1.500 I-0.997 J-0.997 F1000.200
G2 X17.909 Y163.829 Z-1.500 I-1.141 J0.829 F1000.200
G2 X20.047 Y163.997 Z-1.500 I1.141 J-0.829 F1000.200
G0 Z8.000
G0 X19.054 Y177.004
G0 Z6.000
G1 X19.048 Y177.006 Z-0.170 F199.800
G2 X19.052 Y176.994 Z-0.170 I0.002 J-0.006 F1000.200
G2 X19.048 Y177.006 Z-0.170 I-0.002 J0.006 F1000.200
G1 X19.048 Y177.006 Z-1.500 F199.800
G2 X19.052 Y176.994 Z-1.500 I0.002 J-0.006 F1000.200
G2 X19.048 Y177.006 Z-1.500 I-0.002 J0.006 F1000.200
G0 Z8.000
G0 X19.054 Y8.004
G0 Z6.000
G1 X19.048 Y8.006 Z-0.170 F199.800
G2 X19.052 Y7.994 Z-0.170 I0.002 J-0.006 F1000.200
G2 X19.048 Y8.006 Z-0.170 I-0.002 J0.006 F1000.200
G1 X19.048 Y8.006 Z-1.500 F199.800
G2 X19.052 Y7.994 Z-1.500 I0.002 J-0.006 F1000.200
G2 X19.048 Y8.006 Z-1.500 I-0.002 J0.006 F1000.200
G0 Z8.000
(finish operation: Pocket_Shape)
(begin operation: Default Tool)
(machine: not set, mm/min)
(Default Tool)
M6 T1
M3 S0
(finish operation: Default Tool)
(begin operation: Profile_Faces)
(machine: not set, mm/min)
(Profile_Faces)
(Compensated Tool Path. Diameter: 3.17)
G0 Z8.000
G0 X28.187 Y50.823
G0 Z6.000
G1 X28.187 Y50.823 Z-0.170 F199.800
G2 X20.986 Y27.726 Z-0.170 I-9.138 J-9.822 F1000.200
G1 X20.021 Y27.621 Z-0.170 F1000.200
G2 X17.767 Y54.355 Z-0.170 I-0.970 J13.380 F1000.200
G3 X19.048 Y55.420 Z-0.170 I-0.208 J1.553 F1000.200
G3 X20.333 Y54.355 Z-0.170 I1.496 J0.497 F1000.200
G2 X28.187 Y50.823 Z-0.170 I-1.284 J-13.354 F1000.200
G1 X28.187 Y50.823 Z-1.000 F199.800
G2 X20.986 Y27.726 Z-1.000 I-9.138 J-9.822 F1000.200
G1 X20.021 Y27.621 Z-1.000 F1000.200
G2 X17.767 Y54.355 Z-1.000 I-0.970 J13.380 F1000.200
G3 X19.048 Y55.420 Z-1.000 I-0.208 J1.553 F1000.200
G3 X20.333 Y54.355 Z-1.000 I1.496 J0.497 F1000.200
G2 X28.187 Y50.823 Z-1.000 I-1.284 J-13.354 F1000.200
G0 Z8.000
(finish operation: Profile_Faces)
(begin operation: Default Tool)
(machine: not set, mm/min)
(Default Tool)
M6 T1
M3 S0
(finish operation: Default Tool)
(begin operation: TagDressup)
(machine: not set, mm/min)
G0 Z8.000
G0 X39.221 Y186.121 Z8.000
G0 X39.221 Y186.121 Z6.000
G1 X39.221 Y186.121 Z-0.170 F1000.200
G2 X39.685 Y185.000 Z-0.170 I-1.121 J-1.121 F1000.200
G1 X39.685 Y141.485 Z-0.170 F1000.200
G1 X39.685 Y140.815 Z0.500 F1000.200
G1 X39.685 Y136.685 Z0.500 F1000.200
G1 X39.685 Y136.015 Z-0.170 F1000.200
G1 X39.685 Y48.985 Z-0.170 F1000.200
G1 X39.685 Y48.315 Z0.500 F1000.200
G1 X39.685 Y44.185 Z0.500 F1000.200
G1 X39.685 Y43.515 Z-0.170 F1000.200
G1 X39.685 Y0.000 Z-0.170 F1000.200
G2 X38.100 Y-1.585 Z-0.170 I-1.585 J0.000 F1000.200
G1 X0.000 Y-1.585 Z-0.170 F1000.200
G2 X-1.585 Y-0.000 Z-0.170 I0.000 J1.585 F1000.200
G1 X-1.585 Y43.515 Z-0.170 F1000.200
G1 X-1.585 Y44.185 Z0.500 F1000.200
G1 X-1.585 Y48.315 Z0.500 F1000.200
G1 X-1.585 Y48.985 Z-0.170 F1000.200
G1 X-1.585 Y136.015 Z-0.170 F1000.200
G1 X-1.585 Y136.685 Z0.500 F1000.200
G1 X-1.585 Y140.815 Z0.500 F1000.200
G1 X-1.585 Y141.485 Z-0.170 F1000.200
G1 X-1.585 Y185.000 Z-0.170 F1000.200
G2 X-0.000 Y186.585 Z-0.170 I1.585 J-0.000 F1000.200
G1 X38.100 Y186.585 Z-0.170 F1000.200
G2 X39.221 Y186.121 Z-0.170 I-0.000 J-1.585 F1000.200
G1 X39.221 Y186.121 Z-1.500 F1000.200
G2 X39.685 Y185.000 Z-1.500 I-1.121 J-1.121 F1000.200
G1 X39.685 Y142.815 Z-1.500 F1000.200
G1 X39.685 Y140.815 Z0.500 F1000.200
G1 X39.685 Y136.685 Z0.500 F1000.200
G1 X39.685 Y134.685 Z-1.500 F1000.200
G1 X39.685 Y50.315 Z-1.500 F1000.200
G1 X39.685 Y48.315 Z0.500 F1000.200
G1 X39.685 Y44.185 Z0.500 F1000.200
G1 X39.685 Y42.185 Z-1.500 F1000.200
G1 X39.685 Y0.000 Z-1.500 F1000.200
G2 X38.100 Y-1.585 Z-1.500 I-1.585 J0.000 F1000.200
G1 X0.000 Y-1.585 Z-1.500 F1000.200
G2 X-1.585 Y-0.000 Z-1.500 I0.000 J1.585 F1000.200
G1 X-1.585 Y42.185 Z-1.500 F1000.200
G1 X-1.585 Y44.185 Z0.500 F1000.200
G1 X-1.585 Y48.315 Z0.500 F1000.200
G1 X-1.585 Y50.315 Z-1.500 F1000.200
G1 X-1.585 Y134.685 Z-1.500 F1000.200
G1 X-1.585 Y136.685 Z0.500 F1000.200
G1 X-1.585 Y140.815 Z0.500 F1000.200
G1 X-1.585 Y142.815 Z-1.500 F1000.200
G1 X-1.585 Y185.000 Z-1.500 F1000.200
G2 X-0.000 Y186.585 Z-1.500 I1.585 J-0.000 F1000.200
G1 X38.100 Y186.585 Z-1.500 F1000.200
G2 X39.221 Y186.121 Z-1.500 I-0.000 J-1.585 F1000.200
G0 X39.221 Y186.121 Z8.000
(finish operation: TagDressup)
(begin postamble)
M05
G17 G54 G90 G80 G40
M2
