(Exported by FreeCAD)
(Post Processor: linuxcnc_post)
(Output Time:2018-06-18 22:08:22.471422)
(begin preamble)
G17 G54 G40 G49 G80 G90
G21
(begin operation: Default Tool)
(machine: not set, mm/min)
(Default Tool)
M6 T1
M3 S24000
(finish operation: Default Tool)
(begin operation: TagDressup)
(machine: not set, mm/min)
G0 Z5.000
G0 X211.061 Y206.061 Z5.000
G0 X211.061 Y206.061 Z3.000
G1 X211.061 Y206.061 Z-3.000 F1000.200
G2 X211.500 Y205.000 Z-3.000 I-1.061 J-1.061 F1000.200
G1 X211.500 Y15.000 Z-3.000 F1000.200
G2 X210.000 Y13.500 Z-3.000 I-1.500 J0.000 F1000.200
G1 X20.000 Y13.500 Z-3.000 F1000.200
G2 X18.500 Y15.000 Z-3.000 I0.000 J1.500 F1000.200
G1 X18.500 Y205.000 Z-3.000 F1000.200
G2 X20.000 Y206.500 Z-3.000 I1.500 J-0.000 F1000.200
G1 X210.000 Y206.500 Z-3.000 F1000.200
G2 X211.061 Y206.061 Z-3.000 I-0.000 J-1.500 F1000.200
G1 X211.061 Y206.061 Z-6.000 F1000.200
G2 X211.500 Y205.000 Z-6.000 I-1.061 J-1.061 F1000.200
G1 X211.500 Y15.000 Z-6.000 F1000.200
G2 X210.000 Y13.500 Z-6.000 I-1.500 J0.000 F1000.200
G1 X20.000 Y13.500 Z-6.000 F1000.200
G2 X18.500 Y15.000 Z-6.000 I0.000 J1.500 F1000.200
G1 X18.500 Y205.000 Z-6.000 F1000.200
G2 X20.000 Y206.500 Z-6.000 I1.500 J-0.000 F1000.200
G1 X210.000 Y206.500 Z-6.000 F1000.200
G2 X211.061 Y206.061 Z-6.000 I-0.000 J-1.500 F1000.200
G1 X211.061 Y206.061 Z-9.000 F1000.200
G2 X211.500 Y205.000 Z-9.000 I-1.061 J-1.061 F1000.200
G1 X211.500 Y15.000 Z-9.000 F1000.200
G2 X210.000 Y13.500 Z-9.000 I-1.500 J0.000 F1000.200
G1 X20.000 Y13.500 Z-9.000 F1000.200
G2 X18.500 Y15.000 Z-9.000 I0.000 J1.500 F1000.200
G1 X18.500 Y205.000 Z-9.000 F1000.200
G2 X20.000 Y206.500 Z-9.000 I1.500 J-0.000 F1000.200
G1 X210.000 Y206.500 Z-9.000 F1000.200
G2 X211.061 Y206.061 Z-9.000 I-0.000 J-1.500 F1000.200
G1 X211.061 Y206.061 Z-12.000 F1000.200
G2 X211.500 Y205.000 Z-12.000 I-1.061 J-1.061 F1000.200
G1 X211.500 Y112.905 Z-12.000 F1000.200
G1 X211.500 Y111.405 Z-10.500 F1000.200
G1 X211.500 Y108.595 Z-10.500 F1000.200
G1 X211.500 Y107.095 Z-12.000 F1000.200
G1 X211.500 Y15.000 Z-12.000 F1000.200
G2 X210.000 Y13.500 Z-12.000 I-1.500 J0.000 F1000.200
G1 X117.905 Y13.500 Z-12.000 F1000.200
G1 X116.405 Y13.500 Z-10.500 F1000.200
G1 X113.595 Y13.500 Z-10.500 F1000.200
G1 X112.095 Y13.500 Z-12.000 F1000.200
G1 X20.000 Y13.500 Z-12.000 F1000.200
G2 X18.500 Y15.000 Z-12.000 I0.000 J1.500 F1000.200
G1 X18.500 Y107.095 Z-12.000 F1000.200
G1 X18.500 Y108.595 Z-10.500 F1000.200
G1 X18.500 Y111.405 Z-10.500 F1000.200
G1 X18.500 Y112.905 Z-12.000 F1000.200
G1 X18.500 Y205.000 Z-12.000 F1000.200
G2 X20.000 Y206.500 Z-12.000 I1.500 J-0.000 F1000.200
G1 X112.095 Y206.500 Z-12.000 F1000.200
G1 X113.595 Y206.500 Z-10.500 F1000.200
G1 X116.405 Y206.500 Z-10.500 F1000.200
G1 X117.905 Y206.500 Z-12.000 F1000.200
G1 X210.000 Y206.500 Z-12.000 F1000.200
G2 X211.061 Y206.061 Z-12.000 I-0.000 J-1.500 F1000.200
G1 X211.061 Y206.061 Z-15.000 F1000.200
G2 X211.500 Y205.000 Z-15.000 I-1.061 J-1.061 F1000.200
G1 X211.500 Y115.905 Z-15.000 F1000.200
G1 X211.500 Y111.405 Z-10.500 F1000.200
G1 X211.500 Y108.595 Z-10.500 F1000.200
G1 X211.500 Y104.095 Z-15.000 F1000.200
G1 X211.500 Y15.000 Z-15.000 F1000.200
G2 X210.000 Y13.500 Z-15.000 I-1.500 J0.000 F1000.200
G1 X120.905 Y13.500 Z-15.000 F1000.200
G1 X116.405 Y13.500 Z-10.500 F1000.200
G1 X113.595 Y13.500 Z-10.500 F1000.200
G1 X109.095 Y13.500 Z-15.000 F1000.200
G1 X20.000 Y13.500 Z-15.000 F1000.200
G2 X18.500 Y15.000 Z-15.000 I0.000 J1.500 F1000.200
G1 X18.500 Y104.095 Z-15.000 F1000.200
G1 X18.500 Y108.595 Z-10.500 F1000.200
G1 X18.500 Y111.405 Z-10.500 F1000.200
G1 X18.500 Y115.905 Z-15.000 F1000.200
G1 X18.500 Y205.000 Z-15.000 F1000.200
G2 X20.000 Y206.500 Z-15.000 I1.500 J-0.000 F1000.200
G1 X109.095 Y206.500 Z-15.000 F1000.200
G1 X113.595 Y206.500 Z-10.500 F1000.200
G1 X116.405 Y206.500 Z-10.500 F1000.200
G1 X120.905 Y206.500 Z-15.000 F1000.200
G1 X210.000 Y206.500 Z-15.000 F1000.200
G2 X211.061 Y206.061 Z-15.000 I-0.000 J-1.500 F1000.200
G1 X211.061 Y206.061 Z-18.000 F1000.200
G2 X211.500 Y205.000 Z-18.000 I-1.061 J-1.061 F1000.200
G1 X211.500 Y118.905 Z-18.000 F1000.200
G1 X211.500 Y111.405 Z-10.500 F1000.200
G1 X211.500 Y108.595 Z-10.500 F1000.200
G1 X211.500 Y101.095 Z-18.000 F1000.200
G1 X211.500 Y15.000 Z-18.000 F1000.200
G2 X210.000 Y13.500 Z-18.000 I-1.500 J0.000 F1000.200
G1 X123.905 Y13.500 Z-18.000 F1000.200
G1 X116.405 Y13.500 Z-10.500 F1000.200
G1 X113.595 Y13.500 Z-10.500 F1000.200
G1 X106.095 Y13.500 Z-18.000 F1000.200
G1 X20.000 Y13.500 Z-18.000 F1000.200
G2 X18.500 Y15.000 Z-18.000 I0.000 J1.500 F1000.200
G1 X18.500 Y101.095 Z-18.000 F1000.200
G1 X18.500 Y108.595 Z-10.500 F1000.200
G1 X18.500 Y111.405 Z-10.500 F1000.200
G1 X18.500 Y118.905 Z-18.000 F1000.200
G1 X18.500 Y205.000 Z-18.000 F1000.200
G2 X20.000 Y206.500 Z-18.000 I1.500 J-0.000 F1000.200
G1 X106.095 Y206.500 Z-18.000 F1000.200
G1 X113.595 Y206.500 Z-10.500 F1000.200
G1 X116.405 Y206.500 Z-10.500 F1000.200
G1 X123.905 Y206.500 Z-18.000 F1000.200
G1 X210.000 Y206.500 Z-18.000 F1000.200
G2 X211.061 Y206.061 Z-18.000 I-0.000 J-1.500 F1000.200
G1 X211.061 Y206.061 Z-20.000 F1000.200
G2 X211.500 Y205.000 Z-20.000 I-1.061 J-1.061 F1000.200
G1 X211.500 Y120.905 Z-20.000 F1000.200
G1 X211.500 Y111.405 Z-10.500 F1000.200
G1 X211.500 Y108.595 Z-10.500 F1000.200
G1 X211.500 Y99.095 Z-20.000 F1000.200
G1 X211.500 Y15.000 Z-20.000 F1000.200
G2 X210.000 Y13.500 Z-20.000 I-1.500 J0.000 F1000.200
G1 X125.905 Y13.500 Z-20.000 F1000.200
G1 X116.405 Y13.500 Z-10.500 F1000.200
G1 X113.595 Y13.500 Z-10.500 F1000.200
G1 X104.095 Y13.500 Z-20.000 F1000.200
G1 X20.000 Y13.500 Z-20.000 F1000.200
G2 X18.500 Y15.000 Z-20.000 I0.000 J1.500 F1000.200
G1 X18.500 Y99.095 Z-20.000 F1000.200
G1 X18.500 Y108.595 Z-10.500 F1000.200
G1 X18.500 Y111.405 Z-10.500 F1000.200
G1 X18.500 Y120.905 Z-20.000 F1000.200
G1 X18.500 Y205.000 Z-20.000 F1000.200
G2 X20.000 Y206.500 Z-20.000 I1.500 J-0.000 F1000.200
G1 X104.095 Y206.500 Z-20.000 F1000.200
G1 X113.595 Y206.500 Z-10.500 F1000.200
G1 X116.405 Y206.500 Z-10.500 F1000.200
G1 X125.905 Y206.500 Z-20.000 F1000.200
G1 X210.000 Y206.500 Z-20.000 F1000.200
G2 X211.061 Y206.061 Z-20.000 I-0.000 J-1.500 F1000.200
G0 X211.061 Y206.061 Z5.000
(finish operation: TagDressup)
(begin operation: Default Tool)
(machine: not set, mm/min)
(Default Tool)
M6 T1
M3 S24000
(finish operation: Default Tool)
(begin operation: TagDressup001)
(machine: not set, mm/min)
G0 Z5.000
G0 X384.189 Y74.189 Z5.000
G0 X384.189 Y74.189 Z3.000
G1 X384.189 Y74.189 Z-3.000 F1000.200
G1 X386.500 Y71.879 Z-3.000 F1000.200
G1 X386.500 Y48.500 Z-3.000 F1000.200
G1 X361.500 Y48.500 Z-3.000 F1000.200
G1 X361.500 Y71.879 Z-3.000 F1000.200
G1 X366.121 Y76.500 Z-3.000 F1000.200
G1 X381.879 Y76.500 Z-3.000 F1000.200
G1 X384.189 Y74.189 Z-3.000 F1000.200
G1 X384.189 Y74.189 Z-6.000 F1000.200
G1 X386.500 Y71.879 Z-6.000 F1000.200
G1 X386.500 Y48.500 Z-6.000 F1000.200
G1 X361.500 Y48.500 Z-6.000 F1000.200
G1 X361.500 Y71.879 Z-6.000 F1000.200
G1 X366.121 Y76.500 Z-6.000 F1000.200
G1 X381.879 Y76.500 Z-6.000 F1000.200
G1 X384.189 Y74.189 Z-6.000 F1000.200
G1 X384.189 Y74.189 Z-9.000 F1000.200
G1 X386.500 Y71.879 Z-9.000 F1000.200
G1 X386.500 Y48.500 Z-9.000 F1000.200
G1 X361.500 Y48.500 Z-9.000 F1000.200
G1 X361.500 Y71.879 Z-9.000 F1000.200
G1 X366.121 Y76.500 Z-9.000 F1000.200
G1 X381.879 Y76.500 Z-9.000 F1000.200
G1 X384.189 Y74.189 Z-9.000 F1000.200
G1 X384.189 Y74.189 Z-12.000 F1000.200
G1 X386.500 Y71.879 Z-12.000 F1000.200
G1 X386.500 Y48.500 Z-12.000 F1000.200
G1 X361.500 Y48.500 Z-12.000 F1000.200
G1 X361.500 Y71.879 Z-12.000 F1000.200
G1 X366.121 Y76.500 Z-12.000 F1000.200
G1 X381.879 Y76.500 Z-12.000 F1000.200
G1 X384.189 Y74.189 Z-12.000 F1000.200
G1 X384.189 Y74.189 Z-15.000 F1000.200
G1 X386.500 Y71.879 Z-15.000 F1000.200
G1 X386.500 Y48.500 Z-15.000 F1000.200
G1 X361.500 Y48.500 Z-15.000 F1000.200
G1 X361.500 Y71.879 Z-15.000 F1000.200
G1 X366.121 Y76.500 Z-15.000 F1000.200
G1 X381.879 Y76.500 Z-15.000 F1000.200
G1 X384.189 Y74.189 Z-15.000 F1000.200
G1 X384.189 Y74.189 Z-18.000 F1000.200
G1 X386.500 Y71.879 Z-18.000 F1000.200
G1 X386.500 Y60.833 Z-18.000 F1000.200
G1 X386.500 Y60.189 Z-17.350 F1000.200
G1 X386.500 Y59.546 Z-18.000 F1000.200
G1 X386.500 Y48.500 Z-18.000 F1000.200
G1 X374.643 Y48.500 Z-18.000 F1000.200
G1 X374.000 Y48.500 Z-17.350 F1000.200
G1 X373.357 Y48.500 Z-18.000 F1000.200
G1 X361.500 Y48.500 Z-18.000 F1000.200
G1 X361.500 Y59.546 Z-18.000 F1000.200
G1 X361.500 Y60.189 Z-17.350 F1000.200
G1 X361.500 Y60.833 Z-18.000 F1000.200
G1 X361.500 Y71.879 Z-18.000 F1000.200
G1 X366.121 Y76.500 Z-18.000 F1000.200
G1 X373.357 Y76.500 Z-18.000 F1000.200
G1 X374.000 Y76.500 Z-17.350 F1000.200
G1 X374.643 Y76.500 Z-18.000 F1000.200
G1 X381.879 Y76.500 Z-18.000 F1000.200
G1 X384.189 Y74.189 Z-18.000 F1000.200
G1 X384.189 Y74.189 Z-20.000 F1000.200
G1 X386.500 Y71.879 Z-20.000 F1000.200
G1 X386.500 Y62.813 Z-20.000 F1000.200
G1 X386.500 Y60.189 Z-17.350 F1000.200
G1 X386.500 Y57.566 Z-20.000 F1000.200
G1 X386.500 Y48.500 Z-20.000 F1000.200
G1 X376.623 Y48.500 Z-20.000 F1000.200
G1 X374.000 Y48.500 Z-17.350 F1000.200
G1 X371.377 Y48.500 Z-20.000 F1000.200
G1 X361.500 Y48.500 Z-20.000 F1000.200
G1 X361.500 Y57.566 Z-20.000 F1000.200
G1 X361.500 Y60.189 Z-17.350 F1000.200
G1 X361.500 Y62.813 Z-20.000 F1000.200
G1 X361.500 Y71.879 Z-20.000 F1000.200
G1 X366.121 Y76.500 Z-20.000 F1000.200
G1 X371.377 Y76.500 Z-20.000 F1000.200
G1 X374.000 Y76.500 Z-17.350 F1000.200
G1 X376.623 Y76.500 Z-20.000 F1000.200
G1 X381.879 Y76.500 Z-20.000 F1000.200
G1 X384.189 Y74.189 Z-20.000 F1000.200
G0 X384.189 Y74.189 Z5.000
(finish operation: TagDressup001)
(begin operation: Default Tool)
(machine: not set, mm/min)
(Default Tool)
M6 T1
M3 S24000
(finish operation: Default Tool)
(begin operation: TagDressup002)
(machine: not set, mm/min)
G0 Z5.000
G0 X421.061 Y206.061 Z5.000
G0 X421.061 Y206.061 Z3.000
G1 X421.061 Y206.061 Z-3.000 F1000.200
G2 X421.500 Y205.000 Z-3.000 I-1.061 J-1.061 F1000.200
G1 X421.500 Y15.000 Z-3.000 F1000.200
G2 X420.000 Y13.500 Z-3.000 I-1.500 J0.000 F1000.200
G1 X230.000 Y13.500 Z-3.000 F1000.200
G2 X228.500 Y15.000 Z-3.000 I0.000 J1.500 F1000.200
G1 X228.500 Y205.000 Z-3.000 F1000.200
G2 X230.000 Y206.500 Z-3.000 I1.500 J-0.000 F1000.200
G1 X420.000 Y206.500 Z-3.000 F1000.200
G2 X421.061 Y206.061 Z-3.000 I-0.000 J-1.500 F1000.200
G1 X421.061 Y206.061 Z-6.000 F1000.200
G2 X421.500 Y205.000 Z-6.000 I-1.061 J-1.061 F1000.200
G1 X421.500 Y15.000 Z-6.000 F1000.200
G2 X420.000 Y13.500 Z-6.000 I-1.500 J0.000 F1000.200
G1 X230.000 Y13.500 Z-6.000 F1000.200
G2 X228.500 Y15.000 Z-6.000 I0.000 J1.500 F1000.200
G1 X228.500 Y205.000 Z-6.000 F1000.200
G2 X230.000 Y206.500 Z-6.000 I1.500 J-0.000 F1000.200
G1 X420.000 Y206.500 Z-6.000 F1000.200
G2 X421.061 Y206.061 Z-6.000 I-0.000 J-1.500 F1000.200
G1 X421.061 Y206.061 Z-9.000 F1000.200
G2 X421.500 Y205.000 Z-9.000 I-1.061 J-1.061 F1000.200
G1 X421.500 Y15.000 Z-9.000 F1000.200
G2 X420.000 Y13.500 Z-9.000 I-1.500 J0.000 F1000.200
G1 X230.000 Y13.500 Z-9.000 F1000.200
G2 X228.500 Y15.000 Z-9.000 I0.000 J1.500 F1000.200
G1 X228.500 Y205.000 Z-9.000 F1000.200
G2 X230.000 Y206.500 Z-9.000 I1.500 J-0.000 F1000.200
G1 X420.000 Y206.500 Z-9.000 F1000.200
G2 X421.061 Y206.061 Z-9.000 I-0.000 J-1.500 F1000.200
G1 X421.061 Y206.061 Z-12.000 F1000.200
G2 X421.500 Y205.000 Z-12.000 I-1.061 J-1.061 F1000.200
G1 X421.500 Y112.905 Z-12.000 F1000.200
G1 X421.500 Y111.405 Z-10.500 F1000.200
G1 X421.500 Y108.595 Z-10.500 F1000.200
G1 X421.500 Y107.095 Z-12.000 F1000.200
G1 X421.500 Y15.000 Z-12.000 F1000.200
G2 X420.000 Y13.500 Z-12.000 I-1.500 J0.000 F1000.200
G1 X327.905 Y13.500 Z-12.000 F1000.200
G1 X326.405 Y13.500 Z-10.500 F1000.200
G1 X323.595 Y13.500 Z-10.500 F1000.200
G1 X322.095 Y13.500 Z-12.000 F1000.200
G1 X230.000 Y13.500 Z-12.000 F1000.200
G2 X228.500 Y15.000 Z-12.000 I0.000 J1.500 F1000.200
G1 X228.500 Y107.095 Z-12.000 F1000.200
G1 X228.500 Y108.595 Z-10.500 F1000.200
G1 X228.500 Y111.405 Z-10.500 F1000.200
G1 X228.500 Y112.905 Z-12.000 F1000.200
G1 X228.500 Y205.000 Z-12.000 F1000.200
G2 X230.000 Y206.500 Z-12.000 I1.500 J-0.000 F1000.200
G1 X322.095 Y206.500 Z-12.000 F1000.200
G1 X323.595 Y206.500 Z-10.500 F1000.200
G1 X326.405 Y206.500 Z-10.500 F1000.200
G1 X327.905 Y206.500 Z-12.000 F1000.200
G1 X420.000 Y206.500 Z-12.000 F1000.200
G2 X421.061 Y206.061 Z-12.000 I-0.000 J-1.500 F1000.200
G1 X421.061 Y206.061 Z-15.000 F1000.200
G2 X421.500 Y205.000 Z-15.000 I-1.061 J-1.061 F1000.200
G1 X421.500 Y115.905 Z-15.000 F1000.200
G1 X421.500 Y111.405 Z-10.500 F1000.200
G1 X421.500 Y108.595 Z-10.500 F1000.200
G1 X421.500 Y104.095 Z-15.000 F1000.200
G1 X421.500 Y15.000 Z-15.000 F1000.200
G2 X420.000 Y13.500 Z-15.000 I-1.500 J0.000 F1000.200
G1 X330.905 Y13.500 Z-15.000 F1000.200
G1 X326.405 Y13.500 Z-10.500 F1000.200
G1 X323.595 Y13.500 Z-10.500 F1000.200
G1 X319.095 Y13.500 Z-15.000 F1000.200
G1 X230.000 Y13.500 Z-15.000 F1000.200
G2 X228.500 Y15.000 Z-15.000 I0.000 J1.500 F1000.200
G1 X228.500 Y104.095 Z-15.000 F1000.200
G1 X228.500 Y108.595 Z-10.500 F1000.200
G1 X228.500 Y111.405 Z-10.500 F1000.200
G1 X228.500 Y115.905 Z-15.000 F1000.200
G1 X228.500 Y205.000 Z-15.000 F1000.200
G2 X230.000 Y206.500 Z-15.000 I1.500 J-0.000 F1000.200
G1 X319.095 Y206.500 Z-15.000 F1000.200
G1 X323.595 Y206.500 Z-10.500 F1000.200
G1 X326.405 Y206.500 Z-10.500 F1000.200
G1 X330.905 Y206.500 Z-15.000 F1000.200
G1 X420.000 Y206.500 Z-15.000 F1000.200
G2 X421.061 Y206.061 Z-15.000 I-0.000 J-1.500 F1000.200
G1 X421.061 Y206.061 Z-18.000 F1000.200
G2 X421.500 Y205.000 Z-18.000 I-1.061 J-1.061 F1000.200
G1 X421.500 Y118.905 Z-18.000 F1000.200
G1 X421.500 Y111.405 Z-10.500 F1000.200
G1 X421.500 Y108.595 Z-10.500 F1000.200
G1 X421.500 Y101.095 Z-18.000 F1000.200
G1 X421.500 Y15.000 Z-18.000 F1000.200
G2 X420.000 Y13.500 Z-18.000 I-1.500 J0.000 F1000.200
G1 X333.905 Y13.500 Z-18.000 F1000.200
G1 X326.405 Y13.500 Z-10.500 F1000.200
G1 X323.595 Y13.500 Z-10.500 F1000.200
G1 X316.095 Y13.500 Z-18.000 F1000.200
G1 X230.000 Y13.500 Z-18.000 F1000.200
G2 X228.500 Y15.000 Z-18.000 I0.000 J1.500 F1000.200
G1 X228.500 Y101.095 Z-18.000 F1000.200
G1 X228.500 Y108.595 Z-10.500 F1000.200
G1 X228.500 Y111.405 Z-10.500 F1000.200
G1 X228.500 Y118.905 Z-18.000 F1000.200
G1 X228.500 Y205.000 Z-18.000 F1000.200
G2 X230.000 Y206.500 Z-18.000 I1.500 J-0.000 F1000.200
G1 X316.095 Y206.500 Z-18.000 F1000.200
G1 X323.595 Y206.500 Z-10.500 F1000.200
G1 X326.405 Y206.500 Z-10.500 F1000.200
G1 X333.905 Y206.500 Z-18.000 F1000.200
G1 X420.000 Y206.500 Z-18.000 F1000.200
G2 X421.061 Y206.061 Z-18.000 I-0.000 J-1.500 F1000.200
G1 X421.061 Y206.061 Z-20.000 F1000.200
G2 X421.500 Y205.000 Z-20.000 I-1.061 J-1.061 F1000.200
G1 X421.500 Y120.905 Z-20.000 F1000.200
G1 X421.500 Y111.405 Z-10.500 F1000.200
G1 X421.500 Y108.595 Z-10.500 F1000.200
G1 X421.500 Y99.095 Z-20.000 F1000.200
G1 X421.500 Y15.000 Z-20.000 F1000.200
G2 X420.000 Y13.500 Z-20.000 I-1.500 J0.000 F1000.200
G1 X335.905 Y13.500 Z-20.000 F1000.200
G1 X326.405 Y13.500 Z-10.500 F1000.200
G1 X323.595 Y13.500 Z-10.500 F1000.200
G1 X314.095 Y13.500 Z-20.000 F1000.200
G1 X230.000 Y13.500 Z-20.000 F1000.200
G2 X228.500 Y15.000 Z-20.000 I0.000 J1.500 F1000.200
G1 X228.500 Y99.095 Z-20.000 F1000.200
G1 X228.500 Y108.595 Z-10.500 F1000.200
G1 X228.500 Y111.405 Z-10.500 F1000.200
G1 X228.500 Y120.905 Z-20.000 F1000.200
G1 X228.500 Y205.000 Z-20.000 F1000.200
G2 X230.000 Y206.500 Z-20.000 I1.500 J-0.000 F1000.200
G1 X314.095 Y206.500 Z-20.000 F1000.200
G1 X323.595 Y206.500 Z-10.500 F1000.200
G1 X326.405 Y206.500 Z-10.500 F1000.200
G1 X335.905 Y206.500 Z-20.000 F1000.200
G1 X420.000 Y206.500 Z-20.000 F1000.200
G2 X421.061 Y206.061 Z-20.000 I-0.000 J-1.500 F1000.200
G0 X421.061 Y206.061 Z5.000
(finish operation: TagDressup002)
(begin postamble)
M05
G17 G54 G90 G80 G40
M2
