( pcb2gcode 1.3.2 )
( Software-independent Gcode )

G94 ( Millimeters per minute feed rate. )
G21 ( Units == Millimeters. )

G90 ( Absolute coordinates. )
S24000 ( RPM spindle speed. )
G64 P0.05080 ( set maximum deviation from commanded toolpath )
F650.00000 ( Feedrate. )

F650.00000 ( Feedrate. )
M3 ( Spindle on clockwise. )
G04 P0 ( dwell for no time -- G64 should not smooth over this point )
G00 Z2.00000 ( retract )

G00 X3.39390 Y58.44750 ( rapid move to begin. )
F325.00000
G01 Z-0.05000
G04 P0 ( dwell for no time -- G64 should not smooth over this point )
F650.00000
X3.39390 Y58.44750
X3.24150 Y58.37130
X3.03830 Y58.16810
X2.88590 Y57.88870
X2.80970 Y57.55850
X2.80970 Y56.87270
X2.88590 Y56.54250
X3.03830 Y56.26310
X3.24150 Y56.05990
X3.62250 Y55.85670
X3.85110 Y55.80590
X4.58770 Y55.80590
X4.94330 Y55.90750
X5.12110 Y56.00910
X5.14650 Y56.05990
X5.19730 Y56.05990
X5.40050 Y56.26310
X5.57830 Y56.64410
X7.71190 Y56.64410
X7.71190 Y56.21230
X9.71850 Y56.21230
X9.71850 Y58.21890
X7.71190 Y58.21890
X7.71190 Y57.76170
X5.57830 Y57.76170
X5.55290 Y57.88870
X5.40050 Y58.16810
X5.19730 Y58.37130
X4.81630 Y58.57450
X4.61310 Y58.62530
X3.82570 Y58.62530
X3.49550 Y58.52370
X3.39390 Y58.44750
G04 P0 ( dwell for no time -- G64 should not smooth over this point )
G00 Z2.00000 ( retract )

G00 X3.64790 Y58.44750 ( rapid move to begin. )
F325.00000
G01 Z-0.05000
G04 P0 ( dwell for no time -- G64 should not smooth over this point )
F650.00000
X3.64790 Y58.44750
X3.57170 Y58.44750
X3.36850 Y58.29510
X3.31770 Y58.29510
X3.06370 Y58.01570
X2.96210 Y57.81250
X2.88590 Y57.48230
X2.88590 Y56.94890
X2.96210 Y56.61870
X3.11450 Y56.33930
X3.31770 Y56.13610
X3.69870 Y55.93290
X3.92730 Y55.88210
X4.51150 Y55.88210
X4.86710 Y55.98370
X5.04490 Y56.08530
X5.07030 Y56.13610
X5.12110 Y56.13610
X5.32430 Y56.33930
X5.50210 Y56.72030
X7.78810 Y56.72030
X7.78810 Y56.28850
X9.64230 Y56.28850
X9.64230 Y58.14270
X7.78810 Y58.14270
X7.78810 Y57.68550
X5.50210 Y57.68550
X5.47670 Y57.81250
X5.32430 Y58.09190
X5.12110 Y58.29510
X5.07030 Y58.29510
X4.86710 Y58.44750
X4.53690 Y58.54910
X3.90190 Y58.54910
X3.69870 Y58.49830
X3.64790 Y58.44750
G04 P0 ( dwell for no time -- G64 should not smooth over this point )
G00 Z2.00000 ( retract )

G00 X3.39390 Y53.46910 ( rapid move to begin. )
F325.00000
G01 Z-0.05000
G04 P0 ( dwell for no time -- G64 should not smooth over this point )
F650.00000
X3.39390 Y53.46910
X3.24150 Y53.39290
X3.03830 Y53.18970
X2.88590 Y52.91030
X2.80970 Y52.58010
X2.80970 Y51.89430
X2.88590 Y51.56410
X3.03830 Y51.28470
X3.24150 Y51.08150
X3.62250 Y50.87830
X3.85110 Y50.82750
X4.58770 Y50.82750
X4.94330 Y50.92910
X5.14650 Y51.08150
X5.19730 Y51.08150
X5.40050 Y51.28470
X5.57830 Y51.66570
X6.87370 Y51.66570
X6.92450 Y51.56410
X7.00070 Y51.51330
X7.00070 Y51.46250
X7.10230 Y51.43710
X7.25470 Y51.31010
X8.04210 Y51.28470
X8.19450 Y51.31010
X8.21990 Y51.36090
X8.44850 Y51.46250
X8.44850 Y51.51330
X8.52470 Y51.56410
X8.52470 Y51.61490
X8.60090 Y51.66570
X8.65170 Y51.76730
X8.67710 Y51.86890
X8.65170 Y52.70710
X8.60090 Y52.80870
X8.52470 Y52.85950
X8.52470 Y52.91030
X8.44850 Y52.96110
X8.44850 Y53.01190
X8.34690 Y53.03730
X8.19450 Y53.16430
X7.25470 Y53.16430
X7.22930 Y53.11350
X7.00070 Y53.01190
X7.00070 Y52.96110
X6.84830 Y52.78330
X5.57830 Y52.78330
X5.55290 Y52.91030
X5.40050 Y53.18970
X5.19730 Y53.39290
X4.81630 Y53.59610
X4.61310 Y53.64690
X3.82570 Y53.64690
X3.49550 Y53.54530
X3.39390 Y53.46910
G04 P0 ( dwell for no time -- G64 should not smooth over this point )
G00 Z2.00000 ( retract )

G00 X3.64790 Y53.46910 ( rapid move to begin. )
F325.00000
G01 Z-0.05000
G04 P0 ( dwell for no time -- G64 should not smooth over this point )
F650.00000
X3.64790 Y53.46910
X3.57170 Y53.46910
X3.39390 Y53.36750
X3.36850 Y53.31670
X3.31770 Y53.31670
X3.06370 Y53.03730
X2.96210 Y52.83410
X2.88590 Y52.50390
X2.88590 Y51.97050
X2.96210 Y51.64030
X3.11450 Y51.36090
X3.31770 Y51.15770
X3.69870 Y50.95450
X3.92730 Y50.90370
X4.51150 Y50.90370
X4.86710 Y51.00530
X5.07030 Y51.15770
X5.12110 Y51.15770
X5.32430 Y51.36090
X5.50210 Y51.74190
X6.94990 Y51.74190
X7.00070 Y51.64030
X7.07690 Y51.58950
X7.07690 Y51.53870
X7.17850 Y51.51330
X7.33090 Y51.38630
X7.96590 Y51.36090
X8.11830 Y51.38630
X8.14370 Y51.43710
X8.37230 Y51.53870
X8.37230 Y51.58950
X8.44850 Y51.64030
X8.44850 Y51.69110
X8.52470 Y51.74190
X8.57550 Y51.84350
X8.60090 Y51.94510
X8.57550 Y52.63090
X8.52470 Y52.73250
X8.44850 Y52.78330
X8.44850 Y52.83410
X8.37230 Y52.88490
X8.37230 Y52.93570
X8.14370 Y53.03730
X8.11830 Y53.08810
X7.33090 Y53.08810
X7.30550 Y53.03730
X7.07690 Y52.93570
X7.07690 Y52.88490
X6.92450 Y52.70710
X5.50210 Y52.70710
X5.47670 Y52.83410
X5.32430 Y53.11350
X5.12110 Y53.31670
X5.07030 Y53.31670
X5.04490 Y53.36750
X4.86710 Y53.46910
X4.53690 Y53.57070
X3.90190 Y53.57070
X3.69870 Y53.51990
X3.64790 Y53.46910
G04 P0 ( dwell for no time -- G64 should not smooth over this point )
G00 Z2.00000 ( retract )

G00 X3.39390 Y48.46530 ( rapid move to begin. )
F325.00000
G01 Z-0.05000
G04 P0 ( dwell for no time -- G64 should not smooth over this point )
F650.00000
X3.39390 Y48.46530
X3.24150 Y48.38910
X2.98750 Y48.10970
X2.88590 Y47.90650
X2.80970 Y47.57630
X2.80970 Y46.89050
X2.88590 Y46.56030
X3.03830 Y46.28090
X3.39390 Y45.97610
X3.85110 Y45.82370
X4.58770 Y45.82370
X4.81630 Y45.87450
X5.19730 Y46.07770
X5.40050 Y46.28090
X5.57830 Y46.66190
X7.91510 Y46.66190
X10.65830 Y43.91870
X10.65830 Y36.01930
X7.91510 Y33.27610
X5.57830 Y33.27610
X5.55290 Y33.40310
X5.40050 Y33.68250
X5.19730 Y33.88570
X5.14650 Y33.88570
X4.94330 Y34.03810
X4.61310 Y34.13970
X3.82570 Y34.13970
X3.39390 Y33.98730
X3.03830 Y33.68250
X2.88590 Y33.40310
X2.80970 Y33.07290
X2.80970 Y32.38710
X2.88590 Y32.05690
X3.03830 Y31.77750
X3.24150 Y31.57430
X3.29230 Y31.57430
X3.49550 Y31.42190
X3.85110 Y31.32030
X4.58770 Y31.32030
X4.81630 Y31.37110
X5.19730 Y31.57430
X5.40050 Y31.77750
X5.57830 Y32.15850
X8.39770 Y32.15850
X10.55670 Y29.97410
X10.65830 Y29.92330
X10.65830 Y20.52530
X8.90570 Y18.77270
X5.57830 Y18.77270
X5.55290 Y18.89970
X5.40050 Y19.17910
X5.19730 Y19.38230
X5.14650 Y19.38230
X5.12110 Y19.43310
X4.94330 Y19.53470
X4.61310 Y19.63630
X3.82570 Y19.63630
X3.39390 Y19.48390
X3.03830 Y19.17910
X2.88590 Y18.89970
X2.80970 Y18.56950
X2.80970 Y17.88370
X2.88590 Y17.55350
X3.03830 Y17.27410
X3.24150 Y17.07090
X3.29230 Y17.07090
X3.31770 Y17.02010
X3.49550 Y16.91850
X3.85110 Y16.81690
X4.58770 Y16.81690
X4.81630 Y16.86770
X5.19730 Y17.07090
X5.40050 Y17.27410
X5.57830 Y17.65510
X8.39770 Y17.65510
X10.55670 Y15.47070
X10.65830 Y15.41990
X10.65830 Y7.52050
X7.40710 Y4.26930
X5.57830 Y4.26930
X5.45130 Y4.59950
X5.19730 Y4.87890
X5.14650 Y4.87890
X5.12110 Y4.92970
X4.94330 Y5.03130
X4.61310 Y5.13290
X3.82570 Y5.13290
X3.49550 Y5.03130
X3.31770 Y4.92970
X3.29230 Y4.87890
X3.24150 Y4.87890
X2.98750 Y4.59950
X2.88590 Y4.39630
X2.80970 Y4.06610
X2.80970 Y3.38030
X2.86050 Y3.12630
X3.03830 Y2.77070
X3.24150 Y2.56750
X3.29230 Y2.56750
X3.31770 Y2.51670
X3.49550 Y2.41510
X3.85110 Y2.31350
X4.58770 Y2.31350
X4.94330 Y2.41510
X5.12110 Y2.51670
X5.14650 Y2.56750
X5.19730 Y2.56750
X5.45130 Y2.84690
X5.57830 Y3.15170
X8.04210 Y3.17710
X11.44570 Y6.58070
X11.57270 Y6.52990
X37.86170 Y6.52990
X37.98870 Y6.58070
X38.16650 Y6.78390
X38.69990 Y6.80930
X38.72530 Y6.86010
X38.95390 Y6.96170
X38.95390 Y7.01250
X39.03010 Y7.06330
X39.08090 Y7.16490
X39.96990 Y7.16490
X40.09690 Y7.21570
X42.02730 Y9.14610
X43.37350 Y9.14610
X43.42430 Y9.04450
X43.50050 Y8.99370
X43.50050 Y8.94290
X43.60210 Y8.91750
X43.75450 Y8.79050
X43.90690 Y8.76510
X44.69430 Y8.79050
X44.84670 Y8.91750
X44.94830 Y8.94290
X44.94830 Y8.99370
X45.02450 Y9.04450
X45.07530 Y9.14610
X48.25030 Y9.14610
X48.25030 Y8.02850
X48.30110 Y7.87610
X48.42810 Y7.74910
X48.55510 Y7.69830
X49.57110 Y7.69830
X49.62190 Y7.57130
X49.74890 Y7.44430
X49.79970 Y7.44430
X49.92670 Y7.31730
X50.07910 Y7.26650
X50.86650 Y7.26650
X51.01890 Y7.31730
X51.14590 Y7.44430
X51.19670 Y7.44430
X51.32370 Y7.57130
X51.37450 Y7.69830
X52.11110 Y7.69830
X52.16190 Y7.57130
X52.28890 Y7.44430
X52.33970 Y7.44430
X52.46670 Y7.31730
X52.61910 Y7.26650
X53.40650 Y7.26650
X53.55890 Y7.31730
X53.86370 Y7.57130
X53.88910 Y7.67290
X53.99070 Y7.79990
X54.01610 Y7.95230
X53.99070 Y8.73970
X53.88910 Y8.86670
X53.86370 Y8.96830
X53.73670 Y9.09530
X53.68590 Y9.09530
X53.55890 Y9.22230
X53.40650 Y9.27310
X52.61910 Y9.27310
X52.46670 Y9.22230
X52.16190 Y8.96830
X52.11110 Y8.81590
X51.39990 Y8.81590
X51.32370 Y8.96830
X51.19670 Y9.09530
X51.14590 Y9.09530
X51.01890 Y9.22230
X50.86650 Y9.27310
X50.07910 Y9.27310
X49.92670 Y9.22230
X49.79970 Y9.09530
X49.74890 Y9.09530
X49.62190 Y8.96830
X49.57110 Y8.81590
X49.36790 Y8.81590
X49.36790 Y12.77830
X49.57110 Y12.77830
X49.62190 Y12.65130
X49.74890 Y12.52430
X49.79970 Y12.52430
X49.92670 Y12.39730
X50.07910 Y12.34650
X50.94270 Y12.37190
X51.09510 Y12.44810
X51.14590 Y12.52430
X51.19670 Y12.52430
X51.32370 Y12.65130
X51.37450 Y12.77830
X52.11110 Y12.77830
X52.16190 Y12.65130
X52.28890 Y12.52430
X52.33970 Y12.52430
X52.46670 Y12.39730
X52.61910 Y12.34650
X53.40650 Y12.34650
X53.55890 Y12.39730
X53.86370 Y12.65130
X53.88910 Y12.75290
X53.99070 Y12.87990
X54.01610 Y13.03230
X53.99070 Y13.81970
X53.88910 Y13.94670
X53.86370 Y14.04830
X53.55890 Y14.30230
X53.40650 Y14.35310
X52.61910 Y14.35310
X52.46670 Y14.30230
X52.33970 Y14.17530
X52.28890 Y14.17530
X52.16190 Y14.04830
X52.11110 Y13.89590
X51.39990 Y13.89590
X51.32370 Y14.04830
X51.01890 Y14.30230
X50.86650 Y14.35310
X50.07910 Y14.35310
X49.92670 Y14.30230
X49.79970 Y14.17530
X49.74890 Y14.17530
X49.62190 Y14.04830
X49.57110 Y13.89590
X48.58050 Y13.89590
X48.45350 Y13.84510
X48.30110 Y13.69270
X48.25030 Y13.54030
X48.25030 Y10.26370
X45.10070 Y10.26370
X44.94830 Y10.44150
X44.94830 Y10.49230
X44.77050 Y10.56850
X44.77050 Y10.87330
X44.94830 Y10.94950
X44.94830 Y11.00030
X45.02450 Y11.05110
X45.02450 Y11.10190
X45.10070 Y11.15270
X45.15150 Y11.25430
X45.17690 Y12.09250
X45.10070 Y12.29570
X45.02450 Y12.34650
X44.94830 Y12.49890
X44.84670 Y12.52430
X44.69430 Y12.65130
X43.75450 Y12.65130
X43.72910 Y12.60050
X43.50050 Y12.49890
X43.50050 Y12.44810
X43.34810 Y12.27030
X42.12890 Y12.27030
X40.19850 Y14.22610
X40.07150 Y14.27690
X39.18250 Y14.27690
X39.18250 Y14.68330
X37.27750 Y14.68330
X37.27750 Y14.27690
X37.17590 Y14.27690
X37.17590 Y17.80750
X40.73190 Y21.33810
X40.78270 Y21.49050
X40.75730 Y24.53850
X39.05550 Y26.24030
X29.91150 Y26.26570
X29.78450 Y26.21490
X27.26990 Y23.67490
X26.71110 Y23.64950
X26.60950 Y23.59870
X26.55870 Y23.52250
X26.50790 Y23.52250
X26.45710 Y23.44630
X26.40630 Y23.44630
X26.30470 Y23.21770
X26.25390 Y23.19230
X26.22850 Y22.40490
X26.25390 Y22.25250
X26.30470 Y22.22710
X26.40630 Y21.99850
X26.45710 Y21.99850
X26.50790 Y21.92230
X26.60950 Y21.87150
X26.60950 Y20.98250
X26.40630 Y20.77930
X22.26610 Y20.77930
X22.26610 Y34.80010
X24.06950 Y32.99670
X24.06950 Y31.19330
X23.96790 Y31.14250
X23.91710 Y31.06630
X23.86630 Y31.06630
X23.84090 Y30.96470
X23.71390 Y30.81230
X23.68850 Y30.65990
X23.71390 Y29.87250
X23.76470 Y29.84710
X23.86630 Y29.61850
X23.91710 Y29.61850
X24.06950 Y29.46610
X24.27270 Y29.38990
X25.00930 Y29.38990
X25.21250 Y29.46610
X25.36490 Y29.61850
X25.41570 Y29.61850
X25.44110 Y29.72010
X25.56810 Y29.87250
X25.59350 Y30.65990
X25.56810 Y30.81230
X25.51730 Y30.83770
X25.41570 Y31.06630
X25.36490 Y31.06630
X25.18710 Y31.21870
X25.18710 Y33.53010
X25.13630 Y33.68250
X22.08830 Y36.73050
X21.96130 Y36.78130
X21.37710 Y36.75590
X21.19930 Y36.60350
X21.14850 Y36.45110
X21.14850 Y19.99190
X21.19930 Y19.83950
X21.32630 Y19.71250
X21.45330 Y19.66170
X26.96510 Y19.66170
X27.09210 Y19.71250
X27.70170 Y20.34750
X27.72710 Y21.84610
X27.90490 Y21.99850
X27.95570 Y21.99850
X27.98110 Y22.10010
X28.10810 Y22.25250
X28.13350 Y22.81130
X30.47030 Y25.14810
X38.42050 Y25.14810
X39.66510 Y23.90350
X39.66510 Y22.02390
X36.08370 Y18.44250
X36.05830 Y13.48950
X36.10910 Y13.33710
X36.23610 Y13.21010
X36.36310 Y13.15930
X37.27750 Y13.15930
X37.27750 Y12.77830
X39.18250 Y12.77830
X39.18250 Y13.15930
X39.51270 Y13.15930
X41.26530 Y11.40670
X41.26530 Y10.11130
X41.16370 Y10.06050
X39.41110 Y8.28250
X39.10630 Y8.28250
X38.95390 Y8.46030
X38.95390 Y8.51110
X38.85230 Y8.53650
X38.69990 Y8.66350
X38.54750 Y8.68890
X37.76010 Y8.66350
X37.73470 Y8.61270
X37.50610 Y8.51110
X37.50610 Y8.46030
X37.35370 Y8.30790
X37.27750 Y8.10470
X37.27750 Y7.64750
X12.15690 Y7.64750
X11.77590 Y8.02850
X11.77590 Y15.95330
X11.72510 Y16.10570
X9.84550 Y17.95990
X11.72510 Y19.83950
X11.77590 Y19.99190
X11.77590 Y30.45670
X11.72510 Y30.60910
X9.33750 Y32.97130
X11.72510 Y35.33350
X11.77590 Y35.48590
X11.77590 Y44.45210
X11.72510 Y44.60450
X8.55010 Y47.75410
X5.57830 Y47.77950
X5.55290 Y47.90650
X5.40050 Y48.18590
X5.19730 Y48.38910
X4.81630 Y48.59230
X4.61310 Y48.64310
X3.82570 Y48.64310
X3.49550 Y48.54150
X3.39390 Y48.46530
G04 P0 ( dwell for no time -- G64 should not smooth over this point )
G00 Z2.00000 ( retract )

G00 X3.64790 Y48.46530 ( rapid move to begin. )
F325.00000
G01 Z-0.05000
G04 P0 ( dwell for no time -- G64 should not smooth over this point )
F650.00000
X3.64790 Y48.46530
X3.47010 Y48.41450
X3.11450 Y48.10970
X2.96210 Y47.83030
X2.88590 Y47.50010
X2.88590 Y46.96670
X2.96210 Y46.63650
X3.11450 Y46.35710
X3.47010 Y46.05230
X3.92730 Y45.89990
X4.51150 Y45.89990
X4.74010 Y45.95070
X5.12110 Y46.15390
X5.32430 Y46.35710
X5.50210 Y46.73810
X7.99130 Y46.73810
X10.73450 Y43.99490
X10.73450 Y35.94310
X7.99130 Y33.19990
X5.50210 Y33.19990
X5.47670 Y33.32690
X5.32430 Y33.60630
X4.96870 Y33.91110
X4.53690 Y34.06350
X3.90190 Y34.06350
X3.47010 Y33.91110
X3.11450 Y33.60630
X2.96210 Y33.32690
X2.88590 Y32.99670
X2.88590 Y32.46330
X2.93670 Y32.20930
X3.06370 Y31.92990
X3.31770 Y31.65050
X3.36850 Y31.65050
X3.47010 Y31.54890
X3.92730 Y31.39650
X4.51150 Y31.39650
X4.96870 Y31.54890
X5.32430 Y31.85370
X5.50210 Y32.23470
X8.47390 Y32.23470
X10.63290 Y30.05030
X10.73450 Y29.99950
X10.73450 Y20.44910
X8.98190 Y18.69650
X5.50210 Y18.69650
X5.47670 Y18.82350
X5.32430 Y19.10290
X4.96870 Y19.40770
X4.53690 Y19.56010
X3.90190 Y19.56010
X3.47010 Y19.40770
X3.11450 Y19.10290
X2.96210 Y18.82350
X2.88590 Y18.49330
X2.88590 Y17.95990
X2.93670 Y17.70590
X3.06370 Y17.42650
X3.31770 Y17.14710
X3.36850 Y17.14710
X3.47010 Y17.04550
X3.92730 Y16.89310
X4.51150 Y16.89310
X4.96870 Y17.04550
X5.32430 Y17.35030
X5.50210 Y17.73130
X8.47390 Y17.73130
X10.63290 Y15.54690
X10.73450 Y15.49610
X10.73450 Y7.44430
X7.48330 Y4.19310
X5.50210 Y4.19310
X5.47670 Y4.32010
X5.32430 Y4.59950
X5.12110 Y4.80270
X4.74010 Y5.00590
X4.53690 Y5.05670
X3.90190 Y5.05670
X3.47010 Y4.90430
X3.36850 Y4.80270
X3.31770 Y4.80270
X3.06370 Y4.52330
X2.96210 Y4.32010
X2.88590 Y3.98990
X2.88590 Y3.45650
X2.93670 Y3.20250
X3.11450 Y2.84690
X3.31770 Y2.64370
X3.36850 Y2.64370
X3.39390 Y2.59290
X3.57170 Y2.49130
X3.80030 Y2.41510
X4.51150 Y2.38970
X4.86710 Y2.49130
X5.04490 Y2.59290
X5.07030 Y2.64370
X5.12110 Y2.64370
X5.37510 Y2.92310
X5.50210 Y3.22790
X7.88970 Y3.22790
X8.01670 Y3.27870
X11.44570 Y6.73310
X11.64890 Y6.60610
X37.78550 Y6.60610
X37.91250 Y6.65690
X38.09030 Y6.86010
X38.62370 Y6.88550
X38.64910 Y6.93630
X38.87770 Y7.03790
X38.87770 Y7.08870
X38.95390 Y7.13950
X39.00470 Y7.24110
X39.89370 Y7.24110
X40.02070 Y7.29190
X41.95110 Y9.22230
X43.44970 Y9.22230
X43.50050 Y9.12070
X43.57670 Y9.06990
X43.57670 Y9.01910
X43.80530 Y8.91750
X43.83070 Y8.86670
X43.98310 Y8.84130
X44.61810 Y8.86670
X44.77050 Y8.99370
X44.87210 Y9.01910
X44.87210 Y9.06990
X44.94830 Y9.12070
X44.99910 Y9.22230
X48.32650 Y9.22230
X48.32650 Y8.10470
X48.37730 Y7.95230
X48.50430 Y7.82530
X48.63130 Y7.77450
X49.64730 Y7.77450
X49.69810 Y7.64750
X49.82510 Y7.52050
X49.87590 Y7.52050
X50.00290 Y7.39350
X50.15530 Y7.34270
X50.79030 Y7.34270
X50.94270 Y7.39350
X51.24750 Y7.64750
X51.29830 Y7.77450
X52.18730 Y7.77450
X52.23810 Y7.64750
X52.36510 Y7.52050
X52.41590 Y7.52050
X52.54290 Y7.39350
X52.69530 Y7.34270
X53.33030 Y7.34270
X53.48270 Y7.39350
X53.78750 Y7.64750
X53.81290 Y7.74910
X53.91450 Y7.87610
X53.93990 Y8.02850
X53.91450 Y8.66350
X53.81290 Y8.79050
X53.78750 Y8.89210
X53.66050 Y9.01910
X53.60970 Y9.01910
X53.48270 Y9.14610
X53.33030 Y9.19690
X52.69530 Y9.19690
X52.54290 Y9.14610
X52.23810 Y8.89210
X52.18730 Y8.73970
X51.32370 Y8.73970
X51.24750 Y8.89210
X50.94270 Y9.14610
X50.79030 Y9.19690
X50.15530 Y9.19690
X50.00290 Y9.14610
X49.87590 Y9.01910
X49.82510 Y9.01910
X49.69810 Y8.89210
X49.64730 Y8.73970
X49.29170 Y8.73970
X49.29170 Y12.85450
X49.64730 Y12.85450
X49.69810 Y12.72750
X49.82510 Y12.60050
X49.87590 Y12.60050
X50.00290 Y12.47350
X50.15530 Y12.42270
X50.79030 Y12.42270
X50.94270 Y12.47350
X51.24750 Y12.72750
X51.29830 Y12.85450
X52.18730 Y12.85450
X52.23810 Y12.72750
X52.54290 Y12.47350
X52.69530 Y12.42270
X53.33030 Y12.42270
X53.48270 Y12.47350
X53.78750 Y12.72750
X53.81290 Y12.82910
X53.91450 Y12.95610
X53.93990 Y13.10850
X53.91450 Y13.74350
X53.81290 Y13.87050
X53.78750 Y13.97210
X53.48270 Y14.22610
X53.33030 Y14.27690
X52.69530 Y14.27690
X52.54290 Y14.22610
X52.41590 Y14.09910
X52.36510 Y14.09910
X52.23810 Y13.97210
X52.18730 Y13.81970
X51.32370 Y13.81970
X51.24750 Y13.97210
X50.94270 Y14.22610
X50.79030 Y14.27690
X50.15530 Y14.27690
X50.00290 Y14.22610
X49.87590 Y14.09910
X49.82510 Y14.09910
X49.69810 Y13.97210
X49.64730 Y13.81970
X48.65670 Y13.81970
X48.52970 Y13.76890
X48.37730 Y13.61650
X48.32650 Y13.46410
X48.32650 Y10.18750
X45.02450 Y10.18750
X44.87210 Y10.36530
X44.87210 Y10.41610
X44.69430 Y10.49230
X44.69430 Y10.94950
X44.87210 Y11.02570
X44.87210 Y11.07650
X44.94830 Y11.12730
X44.94830 Y11.17810
X45.02450 Y11.22890
X45.07530 Y11.33050
X45.10070 Y12.01630
X45.02450 Y12.21950
X44.87210 Y12.37190
X44.87210 Y12.42270
X44.77050 Y12.44810
X44.61810 Y12.57510
X43.83070 Y12.57510
X43.80530 Y12.52430
X43.57670 Y12.42270
X43.57670 Y12.37190
X43.42430 Y12.19410
X42.05270 Y12.19410
X40.12230 Y14.14990
X39.99530 Y14.20070
X39.10630 Y14.20070
X39.10630 Y14.60710
X37.35370 Y14.60710
X37.35370 Y14.20070
X37.09970 Y14.20070
X37.09970 Y17.88370
X40.65570 Y21.41430
X40.70650 Y21.56670
X40.68110 Y24.46230
X38.97930 Y26.16410
X29.98770 Y26.18950
X29.86070 Y26.13870
X27.34610 Y23.59870
X26.78730 Y23.57330
X26.68570 Y23.52250
X26.63490 Y23.44630
X26.58410 Y23.44630
X26.53330 Y23.37010
X26.48250 Y23.37010
X26.45710 Y23.26850
X26.33010 Y23.11610
X26.30470 Y22.48110
X26.33010 Y22.32870
X26.38090 Y22.30330
X26.48250 Y22.07470
X26.53330 Y22.07470
X26.58410 Y21.99850
X26.68570 Y21.94770
X26.68570 Y20.90630
X26.48250 Y20.70310
X22.18990 Y20.70310
X22.18990 Y35.02870
X24.14570 Y33.07290
X24.14570 Y31.11710
X24.04410 Y31.06630
X23.99330 Y30.99010
X23.94250 Y30.99010
X23.91710 Y30.88850
X23.79010 Y30.73610
X23.76470 Y30.58370
X23.79010 Y29.94870
X23.84090 Y29.92330
X23.94250 Y29.69470
X23.99330 Y29.69470
X24.14570 Y29.54230
X24.34890 Y29.46610
X24.93310 Y29.46610
X25.13630 Y29.54230
X25.18710 Y29.61850
X25.33950 Y29.69470
X25.36490 Y29.79630
X25.49190 Y29.94870
X25.51730 Y30.58370
X25.49190 Y30.73610
X25.44110 Y30.76150
X25.33950 Y30.99010
X25.28870 Y30.99010
X25.11090 Y31.14250
X25.11090 Y33.45390
X25.06010 Y33.60630
X22.01210 Y36.65430
X21.88510 Y36.70510
X21.52950 Y36.70510
X21.40250 Y36.65430
X21.27550 Y36.52730
X21.22470 Y36.37490
X21.22470 Y20.06810
X21.27550 Y19.91570
X21.40250 Y19.78870
X21.52950 Y19.73790
X26.88890 Y19.73790
X27.01590 Y19.78870
X27.62550 Y20.42370
X27.65090 Y21.92230
X27.82870 Y22.07470
X27.87950 Y22.07470
X27.90490 Y22.17630
X28.03190 Y22.32870
X28.05730 Y22.88750
X30.39410 Y25.22430
X38.49670 Y25.22430
X39.74130 Y23.97970
X39.74130 Y21.94770
X36.15990 Y18.36630
X36.13450 Y13.56570
X36.18530 Y13.41330
X36.31230 Y13.28630
X36.43930 Y13.23550
X37.35370 Y13.23550
X37.35370 Y12.85450
X39.10630 Y12.85450
X39.10630 Y13.23550
X39.58890 Y13.23550
X41.34150 Y11.48290
X41.34150 Y10.03510
X41.23990 Y9.98430
X39.48730 Y8.20630
X39.03010 Y8.20630
X38.87770 Y8.38410
X38.87770 Y8.43490
X38.77610 Y8.46030
X38.62370 Y8.58730
X38.47130 Y8.61270
X37.83630 Y8.58730
X37.81090 Y8.53650
X37.58230 Y8.43490
X37.58230 Y8.38410
X37.42990 Y8.23170
X37.35370 Y8.02850
X37.35370 Y7.57130
X12.08070 Y7.57130
X11.69970 Y7.95230
X11.69970 Y15.87710
X11.64890 Y16.02950
X9.69310 Y17.95990
X11.64890 Y19.91570
X11.69970 Y20.06810
X11.69970 Y30.38050
X11.64890 Y30.53290
X9.28670 Y32.89510
X9.18510 Y32.94590
X11.64890 Y35.40970
X11.69970 Y35.56210
X11.69970 Y44.37590
X11.64890 Y44.52830
X8.52470 Y47.65250
X8.39770 Y47.70330
X5.50210 Y47.70330
X5.47670 Y47.83030
X5.32430 Y48.10970
X5.12110 Y48.31290
X5.07030 Y48.31290
X5.04490 Y48.36370
X4.86710 Y48.46530
X4.53690 Y48.56690
X3.90190 Y48.56690
X3.69870 Y48.51610
X3.64790 Y48.46530
G04 P0 ( dwell for no time -- G64 should not smooth over this point )
G00 Z2.00000 ( retract )

G00 X3.39390 Y43.96950 ( rapid move to begin. )
F325.00000
G01 Z-0.05000
G04 P0 ( dwell for no time -- G64 should not smooth over this point )
F650.00000
X3.39390 Y43.96950
X3.24150 Y43.89330
X3.03830 Y43.69010
X2.88590 Y43.41070
X2.80970 Y43.08050
X2.80970 Y42.39470
X2.88590 Y42.06450
X3.03830 Y41.78510
X3.24150 Y41.58190
X3.62250 Y41.37870
X3.85110 Y41.32790
X4.58770 Y41.32790
X4.94330 Y41.42950
X5.14650 Y41.58190
X5.19730 Y41.58190
X5.40050 Y41.78510
X5.57830 Y42.16610
X7.71190 Y42.16610
X7.71190 Y41.73430
X9.71850 Y41.73430
X9.71850 Y43.74090
X7.71190 Y43.74090
X7.71190 Y43.28370
X5.57830 Y43.28370
X5.55290 Y43.41070
X5.40050 Y43.69010
X5.19730 Y43.89330
X4.81630 Y44.09650
X4.61310 Y44.14730
X3.82570 Y44.14730
X3.49550 Y44.04570
X3.39390 Y43.96950
G04 P0 ( dwell for no time -- G64 should not smooth over this point )
G00 Z2.00000 ( retract )

G00 X3.64790 Y43.96950 ( rapid move to begin. )
F325.00000
G01 Z-0.05000
G04 P0 ( dwell for no time -- G64 should not smooth over this point )
F650.00000
X3.64790 Y43.96950
X3.57170 Y43.96950
X3.36850 Y43.81710
X3.31770 Y43.81710
X3.06370 Y43.53770
X2.96210 Y43.33450
X2.88590 Y43.00430
X2.88590 Y42.47090
X2.96210 Y42.14070
X3.11450 Y41.86130
X3.31770 Y41.65810
X3.69870 Y41.45490
X3.92730 Y41.40410
X4.51150 Y41.40410
X4.86710 Y41.50570
X5.07030 Y41.65810
X5.12110 Y41.65810
X5.32430 Y41.86130
X5.50210 Y42.24230
X7.78810 Y42.24230
X7.78810 Y41.81050
X9.64230 Y41.81050
X9.64230 Y43.66470
X7.78810 Y43.66470
X7.78810 Y43.20750
X5.50210 Y43.20750
X5.47670 Y43.33450
X5.32430 Y43.61390
X5.12110 Y43.81710
X5.07030 Y43.81710
X4.86710 Y43.96950
X4.53690 Y44.07110
X3.90190 Y44.07110
X3.69870 Y44.02030
X3.64790 Y43.96950
G04 P0 ( dwell for no time -- G64 should not smooth over this point )
G00 Z2.00000 ( retract )

G00 X3.39390 Y38.96570 ( rapid move to begin. )
F325.00000
G01 Z-0.05000
G04 P0 ( dwell for no time -- G64 should not smooth over this point )
F650.00000
X3.39390 Y38.96570
X3.24150 Y38.88950
X3.03830 Y38.68630
X2.88590 Y38.40690
X2.80970 Y38.07670
X2.80970 Y37.39090
X2.88590 Y37.06070
X3.03830 Y36.78130
X3.24150 Y36.57810
X3.62250 Y36.37490
X3.85110 Y36.32410
X4.58770 Y36.32410
X4.94330 Y36.42570
X5.14650 Y36.57810
X5.19730 Y36.57810
X5.40050 Y36.78130
X5.57830 Y37.16230
X6.87370 Y37.16230
X6.92450 Y37.06070
X7.00070 Y37.00990
X7.00070 Y36.95910
X7.10230 Y36.93370
X7.25470 Y36.80670
X8.04210 Y36.78130
X8.19450 Y36.80670
X8.21990 Y36.85750
X8.44850 Y36.95910
X8.44850 Y37.00990
X8.52470 Y37.06070
X8.52470 Y37.11150
X8.60090 Y37.16230
X8.65170 Y37.26390
X8.67710 Y37.36550
X8.65170 Y38.20370
X8.60090 Y38.30530
X8.52470 Y38.35610
X8.52470 Y38.40690
X8.44850 Y38.45770
X8.44850 Y38.50850
X8.34690 Y38.53390
X8.19450 Y38.66090
X7.25470 Y38.66090
X7.10230 Y38.53390
X7.00070 Y38.50850
X7.00070 Y38.45770
X6.84830 Y38.27990
X5.57830 Y38.27990
X5.55290 Y38.40690
X5.40050 Y38.68630
X5.19730 Y38.88950
X4.81630 Y39.09270
X4.61310 Y39.14350
X3.82570 Y39.14350
X3.49550 Y39.04190
X3.39390 Y38.96570
G04 P0 ( dwell for no time -- G64 should not smooth over this point )
G00 Z2.00000 ( retract )

G00 X3.64790 Y38.96570 ( rapid move to begin. )
F325.00000
G01 Z-0.05000
G04 P0 ( dwell for no time -- G64 should not smooth over this point )
F650.00000
X3.64790 Y38.96570
X3.57170 Y38.96570
X3.36850 Y38.81330
X3.31770 Y38.81330
X3.06370 Y38.53390
X2.96210 Y38.33070
X2.88590 Y38.00050
X2.88590 Y37.46710
X2.96210 Y37.13690
X3.11450 Y36.85750
X3.31770 Y36.65430
X3.69870 Y36.45110
X3.92730 Y36.40030
X4.51150 Y36.40030
X4.86710 Y36.50190
X5.04490 Y36.60350
X5.07030 Y36.65430
X5.12110 Y36.65430
X5.32430 Y36.85750
X5.50210 Y37.23850
X6.94990 Y37.23850
X7.00070 Y37.13690
X7.07690 Y37.08610
X7.07690 Y37.03530
X7.30550 Y36.93370
X7.33090 Y36.88290
X7.96590 Y36.85750
X8.11830 Y36.88290
X8.14370 Y36.93370
X8.37230 Y37.03530
X8.37230 Y37.08610
X8.44850 Y37.13690
X8.44850 Y37.18770
X8.52470 Y37.23850
X8.57550 Y37.34010
X8.60090 Y37.44170
X8.57550 Y38.12750
X8.52470 Y38.22910
X8.44850 Y38.27990
X8.44850 Y38.33070
X8.37230 Y38.38150
X8.37230 Y38.43230
X8.14370 Y38.53390
X8.11830 Y38.58470
X7.33090 Y38.58470
X7.30550 Y38.53390
X7.07690 Y38.43230
X7.07690 Y38.38150
X6.92450 Y38.20370
X5.50210 Y38.20370
X5.47670 Y38.33070
X5.32430 Y38.61010
X5.12110 Y38.81330
X5.07030 Y38.81330
X4.86710 Y38.96570
X4.53690 Y39.06730
X3.90190 Y39.06730
X3.69870 Y39.01650
X3.64790 Y38.96570
G04 P0 ( dwell for no time -- G64 should not smooth over this point )
G00 Z2.00000 ( retract )

G00 X3.39390 Y29.46610 ( rapid move to begin. )
F325.00000
G01 Z-0.05000
G04 P0 ( dwell for no time -- G64 should not smooth over this point )
F650.00000
X3.39390 Y29.46610
X3.24150 Y29.38990
X3.03830 Y29.18670
X2.88590 Y28.90730
X2.80970 Y28.57710
X2.80970 Y27.89130
X2.88590 Y27.56110
X3.03830 Y27.28170
X3.24150 Y27.07850
X3.62250 Y26.87530
X3.85110 Y26.82450
X4.58770 Y26.82450
X4.94330 Y26.92610
X5.14650 Y27.07850
X5.19730 Y27.07850
X5.40050 Y27.28170
X5.57830 Y27.66270
X7.71190 Y27.66270
X7.71190 Y27.23090
X9.71850 Y27.23090
X9.71850 Y29.23750
X7.71190 Y29.23750
X7.71190 Y28.78030
X5.57830 Y28.78030
X5.55290 Y28.90730
X5.40050 Y29.18670
X5.19730 Y29.38990
X4.81630 Y29.59310
X4.61310 Y29.64390
X3.82570 Y29.64390
X3.49550 Y29.54230
X3.39390 Y29.46610
G04 P0 ( dwell for no time -- G64 should not smooth over this point )
G00 Z2.00000 ( retract )

G00 X3.64790 Y29.46610 ( rapid move to begin. )
F325.00000
G01 Z-0.05000
G04 P0 ( dwell for no time -- G64 should not smooth over this point )
F650.00000
X3.64790 Y29.46610
X3.57170 Y29.46610
X3.39390 Y29.36450
X3.36850 Y29.31370
X3.31770 Y29.31370
X3.06370 Y29.03430
X2.96210 Y28.83110
X2.88590 Y28.50090
X2.88590 Y27.96750
X2.96210 Y27.63730
X3.11450 Y27.35790
X3.31770 Y27.15470
X3.69870 Y26.95150
X3.92730 Y26.90070
X4.51150 Y26.90070
X4.86710 Y27.00230
X5.07030 Y27.15470
X5.12110 Y27.15470
X5.32430 Y27.35790
X5.50210 Y27.73890
X7.78810 Y27.73890
X7.78810 Y27.30710
X9.64230 Y27.30710
X9.64230 Y29.16130
X7.78810 Y29.16130
X7.78810 Y28.70410
X5.50210 Y28.70410
X5.47670 Y28.83110
X5.32430 Y29.11050
X5.12110 Y29.31370
X5.07030 Y29.31370
X5.04490 Y29.36450
X4.86710 Y29.46610
X4.53690 Y29.56770
X3.90190 Y29.56770
X3.69870 Y29.51690
X3.64790 Y29.46610
G04 P0 ( dwell for no time -- G64 should not smooth over this point )
G00 Z2.00000 ( retract )

G00 X3.39390 Y24.46230 ( rapid move to begin. )
F325.00000
G01 Z-0.05000
G04 P0 ( dwell for no time -- G64 should not smooth over this point )
F650.00000
X3.39390 Y24.46230
X3.24150 Y24.38610
X3.03830 Y24.18290
X2.88590 Y23.90350
X2.80970 Y23.57330
X2.80970 Y22.88750
X2.88590 Y22.55730
X3.03830 Y22.27790
X3.24150 Y22.07470
X3.62250 Y21.87150
X3.85110 Y21.82070
X4.58770 Y21.82070
X4.94330 Y21.92230
X5.14650 Y22.07470
X5.19730 Y22.07470
X5.40050 Y22.27790
X5.57830 Y22.65890
X6.87370 Y22.65890
X6.92450 Y22.55730
X7.00070 Y22.50650
X7.00070 Y22.45570
X7.10230 Y22.43030
X7.25470 Y22.30330
X8.04210 Y22.27790
X8.19450 Y22.30330
X8.21990 Y22.35410
X8.44850 Y22.45570
X8.44850 Y22.50650
X8.52470 Y22.55730
X8.52470 Y22.60810
X8.60090 Y22.65890
X8.65170 Y22.76050
X8.67710 Y22.86210
X8.65170 Y23.70030
X8.60090 Y23.80190
X8.52470 Y23.85270
X8.52470 Y23.90350
X8.44850 Y23.95430
X8.44850 Y24.00510
X8.21990 Y24.10670
X8.19450 Y24.15750
X7.25470 Y24.15750
X7.22930 Y24.10670
X7.00070 Y24.00510
X7.00070 Y23.95430
X6.84830 Y23.77650
X5.57830 Y23.77650
X5.55290 Y23.90350
X5.40050 Y24.18290
X5.19730 Y24.38610
X4.81630 Y24.58930
X4.61310 Y24.64010
X3.82570 Y24.64010
X3.49550 Y24.53850
X3.39390 Y24.46230
G04 P0 ( dwell for no time -- G64 should not smooth over this point )
G00 Z2.00000 ( retract )

G00 X3.64790 Y24.46230 ( rapid move to begin. )
F325.00000
G01 Z-0.05000
G04 P0 ( dwell for no time -- G64 should not smooth over this point )
F650.00000
X3.64790 Y24.46230
X3.57170 Y24.46230
X3.39390 Y24.36070
X3.36850 Y24.30990
X3.31770 Y24.30990
X3.06370 Y24.03050
X2.96210 Y23.82730
X2.88590 Y23.49710
X2.88590 Y22.96370
X2.96210 Y22.63350
X3.11450 Y22.35410
X3.31770 Y22.15090
X3.69870 Y21.94770
X3.92730 Y21.89690
X4.51150 Y21.89690
X4.86710 Y21.99850
X5.07030 Y22.15090
X5.12110 Y22.15090
X5.32430 Y22.35410
X5.50210 Y22.73510
X6.94990 Y22.73510
X7.00070 Y22.63350
X7.07690 Y22.58270
X7.07690 Y22.53190
X7.17850 Y22.50650
X7.33090 Y22.37950
X7.96590 Y22.35410
X8.11830 Y22.37950
X8.14370 Y22.43030
X8.37230 Y22.53190
X8.37230 Y22.58270
X8.44850 Y22.63350
X8.44850 Y22.68430
X8.52470 Y22.73510
X8.57550 Y22.83670
X8.60090 Y22.93830
X8.57550 Y23.62410
X8.52470 Y23.72570
X8.44850 Y23.77650
X8.44850 Y23.82730
X8.37230 Y23.87810
X8.37230 Y23.92890
X8.27070 Y23.95430
X8.11830 Y24.08130
X7.33090 Y24.08130
X7.17850 Y23.95430
X7.07690 Y23.92890
X7.07690 Y23.87810
X6.92450 Y23.70030
X5.50210 Y23.70030
X5.47670 Y23.82730
X5.32430 Y24.10670
X5.12110 Y24.30990
X5.07030 Y24.30990
X5.04490 Y24.36070
X4.86710 Y24.46230
X4.53690 Y24.56390
X3.90190 Y24.56390
X3.69870 Y24.51310
X3.64790 Y24.46230
G04 P0 ( dwell for no time -- G64 should not smooth over this point )
G00 Z2.00000 ( retract )

G00 X3.39390 Y14.96270 ( rapid move to begin. )
F325.00000
G01 Z-0.05000
G04 P0 ( dwell for no time -- G64 should not smooth over this point )
F650.00000
X3.39390 Y14.96270
X3.24150 Y14.88650
X3.03830 Y14.68330
X2.88590 Y14.40390
X2.80970 Y14.07370
X2.80970 Y13.38790
X2.88590 Y13.05770
X3.03830 Y12.77830
X3.24150 Y12.57510
X3.62250 Y12.37190
X3.85110 Y12.32110
X4.58770 Y12.32110
X4.94330 Y12.42270
X5.12110 Y12.52430
X5.14650 Y12.57510
X5.19730 Y12.57510
X5.40050 Y12.77830
X5.57830 Y13.15930
X7.71190 Y13.15930
X7.71190 Y12.72750
X9.71850 Y12.72750
X9.71850 Y14.73410
X7.71190 Y14.73410
X7.71190 Y14.27690
X5.57830 Y14.27690
X5.55290 Y14.40390
X5.40050 Y14.68330
X5.19730 Y14.88650
X4.81630 Y15.08970
X4.61310 Y15.14050
X3.82570 Y15.14050
X3.49550 Y15.03890
X3.39390 Y14.96270
G04 P0 ( dwell for no time -- G64 should not smooth over this point )
G00 Z2.00000 ( retract )

G00 X3.64790 Y14.96270 ( rapid move to begin. )
F325.00000
G01 Z-0.05000
G04 P0 ( dwell for no time -- G64 should not smooth over this point )
F650.00000
X3.64790 Y14.96270
X3.57170 Y14.96270
X3.39390 Y14.86110
X3.36850 Y14.81030
X3.31770 Y14.81030
X3.06370 Y14.53090
X2.96210 Y14.32770
X2.88590 Y13.99750
X2.88590 Y13.46410
X2.96210 Y13.13390
X3.11450 Y12.85450
X3.31770 Y12.65130
X3.69870 Y12.44810
X3.92730 Y12.39730
X4.51150 Y12.39730
X4.86710 Y12.49890
X5.04490 Y12.60050
X5.07030 Y12.65130
X5.12110 Y12.65130
X5.32430 Y12.85450
X5.50210 Y13.23550
X7.78810 Y13.23550
X7.78810 Y12.80370
X9.64230 Y12.80370
X9.64230 Y14.65790
X7.78810 Y14.65790
X7.78810 Y14.20070
X5.50210 Y14.20070
X5.47670 Y14.32770
X5.32430 Y14.60710
X5.12110 Y14.81030
X5.07030 Y14.81030
X5.04490 Y14.86110
X4.86710 Y14.96270
X4.53690 Y15.06430
X3.90190 Y15.06430
X3.69870 Y15.01350
X3.64790 Y14.96270
G04 P0 ( dwell for no time -- G64 should not smooth over this point )
G00 Z2.00000 ( retract )

G00 X3.39390 Y9.95890 ( rapid move to begin. )
F325.00000
G01 Z-0.05000
G04 P0 ( dwell for no time -- G64 should not smooth over this point )
F650.00000
X3.39390 Y9.95890
X3.24150 Y9.88270
X3.03830 Y9.67950
X2.88590 Y9.40010
X2.80970 Y9.06990
X2.80970 Y8.38410
X2.88590 Y8.05390
X3.03830 Y7.77450
X3.24150 Y7.57130
X3.62250 Y7.36810
X3.85110 Y7.31730
X4.58770 Y7.31730
X4.94330 Y7.41890
X5.14650 Y7.57130
X5.19730 Y7.57130
X5.40050 Y7.77450
X5.57830 Y8.15550
X6.87370 Y8.15550
X6.92450 Y8.05390
X7.00070 Y8.00310
X7.00070 Y7.95230
X7.10230 Y7.92690
X7.25470 Y7.79990
X8.04210 Y7.77450
X8.19450 Y7.79990
X8.21990 Y7.85070
X8.44850 Y7.95230
X8.44850 Y8.00310
X8.52470 Y8.05390
X8.52470 Y8.10470
X8.60090 Y8.15550
X8.65170 Y8.25710
X8.67710 Y8.35870
X8.65170 Y9.19690
X8.60090 Y9.29850
X8.52470 Y9.34930
X8.52470 Y9.40010
X8.44850 Y9.45090
X8.44850 Y9.50170
X8.34690 Y9.52710
X8.19450 Y9.65410
X7.25470 Y9.65410
X7.10230 Y9.52710
X7.00070 Y9.50170
X7.00070 Y9.45090
X6.84830 Y9.27310
X5.57830 Y9.27310
X5.55290 Y9.40010
X5.40050 Y9.67950
X5.19730 Y9.88270
X4.81630 Y10.08590
X4.61310 Y10.13670
X3.82570 Y10.13670
X3.49550 Y10.03510
X3.39390 Y9.95890
G04 P0 ( dwell for no time -- G64 should not smooth over this point )
G00 Z2.00000 ( retract )

G00 X3.64790 Y9.95890 ( rapid move to begin. )
F325.00000
G01 Z-0.05000
G04 P0 ( dwell for no time -- G64 should not smooth over this point )
F650.00000
X3.64790 Y9.95890
X3.57170 Y9.95890
X3.36850 Y9.80650
X3.31770 Y9.80650
X3.06370 Y9.52710
X2.96210 Y9.32390
X2.88590 Y8.99370
X2.88590 Y8.46030
X2.96210 Y8.13010
X3.11450 Y7.85070
X3.31770 Y7.64750
X3.69870 Y7.44430
X3.92730 Y7.39350
X4.51150 Y7.39350
X4.86710 Y7.49510
X5.07030 Y7.64750
X5.12110 Y7.64750
X5.32430 Y7.85070
X5.50210 Y8.23170
X6.94990 Y8.23170
X7.00070 Y8.13010
X7.07690 Y8.07930
X7.07690 Y8.02850
X7.17850 Y8.00310
X7.33090 Y7.87610
X7.96590 Y7.85070
X8.11830 Y7.87610
X8.14370 Y7.92690
X8.37230 Y8.02850
X8.37230 Y8.07930
X8.44850 Y8.13010
X8.44850 Y8.18090
X8.52470 Y8.23170
X8.57550 Y8.33330
X8.60090 Y8.43490
X8.57550 Y9.12070
X8.52470 Y9.22230
X8.44850 Y9.27310
X8.44850 Y9.32390
X8.37230 Y9.37470
X8.37230 Y9.42550
X8.14370 Y9.52710
X8.11830 Y9.57790
X7.33090 Y9.57790
X7.30550 Y9.52710
X7.07690 Y9.42550
X7.07690 Y9.37470
X6.92450 Y9.19690
X5.50210 Y9.19690
X5.47670 Y9.32390
X5.32430 Y9.60330
X5.12110 Y9.80650
X5.07030 Y9.80650
X4.86710 Y9.95890
X4.53690 Y10.06050
X3.90190 Y10.06050
X3.69870 Y10.00970
X3.64790 Y9.95890
G04 P0 ( dwell for no time -- G64 should not smooth over this point )
G00 Z2.00000 ( retract )

G00 X25.72050 Y27.58650 ( rapid move to begin. )
F325.00000
G01 Z-0.05000
G04 P0 ( dwell for no time -- G64 should not smooth over this point )
F650.00000
X25.72050 Y27.58650
X24.09490 Y25.96090
X24.06950 Y23.57330
X23.96790 Y23.52250
X23.91710 Y23.44630
X23.86630 Y23.44630
X23.84090 Y23.34470
X23.71390 Y23.19230
X23.68850 Y22.40490
X23.71390 Y22.25250
X23.76470 Y22.22710
X23.86630 Y21.99850
X23.91710 Y21.99850
X23.96790 Y21.92230
X24.01870 Y21.92230
X24.06950 Y21.84610
X24.17110 Y21.79530
X25.11090 Y21.79530
X25.21250 Y21.84610
X25.26330 Y21.92230
X25.31410 Y21.92230
X25.36490 Y21.99850
X25.41570 Y21.99850
X25.44110 Y22.10010
X25.56810 Y22.25250
X25.59350 Y22.40490
X25.56810 Y23.19230
X25.51730 Y23.21770
X25.41570 Y23.44630
X25.36490 Y23.44630
X25.18710 Y23.59870
X25.18710 Y25.32590
X26.50790 Y26.64670
X43.39890 Y26.64670
X43.65290 Y26.39270
X43.65290 Y17.57890
X43.50050 Y17.50270
X43.50050 Y17.45190
X43.34810 Y17.27410
X38.87770 Y17.24870
X38.31890 Y16.68990
X37.76010 Y16.66450
X37.73470 Y16.61370
X37.50610 Y16.51210
X37.50610 Y16.46130
X37.32830 Y16.25810
X37.27750 Y16.10570
X37.27750 Y15.36910
X37.35370 Y15.16590
X37.42990 Y15.11510
X37.50610 Y14.96270
X37.60770 Y14.93730
X37.76010 Y14.81030
X38.54750 Y14.78490
X38.69990 Y14.81030
X38.72530 Y14.86110
X38.95390 Y14.96270
X38.95390 Y15.01350
X39.03010 Y15.06430
X39.03010 Y15.11510
X39.10630 Y15.16590
X39.15710 Y15.26750
X39.18250 Y15.82630
X39.51270 Y16.15650
X43.37350 Y16.15650
X43.42430 Y16.05490
X43.50050 Y16.00410
X43.50050 Y15.95330
X43.60210 Y15.92790
X43.75450 Y15.80090
X43.90690 Y15.77550
X44.69430 Y15.80090
X44.84670 Y15.92790
X44.94830 Y15.95330
X44.94830 Y16.00410
X45.02450 Y16.05490
X45.07530 Y16.15650
X47.66610 Y16.15650
X48.42810 Y15.36910
X48.55510 Y15.31830
X49.57110 Y15.31830
X49.62190 Y15.19130
X49.74890 Y15.06430
X49.79970 Y15.06430
X49.92670 Y14.93730
X50.07910 Y14.88650
X50.86650 Y14.88650
X51.01890 Y14.93730
X51.14590 Y15.06430
X51.19670 Y15.06430
X51.32370 Y15.19130
X51.37450 Y15.31830
X52.00950 Y15.31830
X52.00950 Y14.88650
X54.01610 Y14.88650
X54.01610 Y16.89310
X52.00950 Y16.89310
X52.00950 Y16.43590
X51.39990 Y16.43590
X51.32370 Y16.58830
X51.19670 Y16.71530
X51.14590 Y16.71530
X51.01890 Y16.84230
X50.86650 Y16.89310
X50.07910 Y16.89310
X49.92670 Y16.84230
X49.79970 Y16.71530
X49.74890 Y16.71530
X49.62190 Y16.58830
X49.57110 Y16.43590
X49.13930 Y16.43590
X48.37730 Y17.22330
X48.25030 Y17.27410
X45.10070 Y17.27410
X44.94830 Y17.45190
X44.94830 Y17.50270
X44.77050 Y17.57890
X44.77050 Y26.95150
X44.71970 Y27.10390
X44.21170 Y27.61190
X44.16090 Y27.61190
X44.03390 Y27.73890
X25.94910 Y27.76430
X25.82210 Y27.71350
X25.72050 Y27.58650
G04 P0 ( dwell for no time -- G64 should not smooth over this point )
G00 Z2.00000 ( retract )

G00 X25.87290 Y27.58650 ( rapid move to begin. )
F325.00000
G01 Z-0.05000
G04 P0 ( dwell for no time -- G64 should not smooth over this point )
F650.00000
X25.87290 Y27.58650
X24.17110 Y25.88470
X24.14570 Y23.49710
X24.04410 Y23.44630
X23.99330 Y23.37010
X23.94250 Y23.37010
X23.91710 Y23.26850
X23.79010 Y23.11610
X23.76470 Y22.48110
X23.79010 Y22.32870
X23.84090 Y22.30330
X23.94250 Y22.07470
X23.99330 Y22.07470
X24.04410 Y21.99850
X24.09490 Y21.99850
X24.14570 Y21.92230
X24.24730 Y21.87150
X24.34890 Y21.84610
X25.03470 Y21.87150
X25.13630 Y21.92230
X25.18710 Y21.99850
X25.23790 Y21.99850
X25.28870 Y22.07470
X25.33950 Y22.07470
X25.36490 Y22.17630
X25.49190 Y22.32870
X25.49190 Y23.11610
X25.44110 Y23.14150
X25.33950 Y23.37010
X25.28870 Y23.37010
X25.11090 Y23.52250
X25.11090 Y25.40210
X26.43170 Y26.72290
X43.47510 Y26.72290
X43.72910 Y26.46890
X43.72910 Y17.50270
X43.57670 Y17.42650
X43.57670 Y17.37570
X43.42430 Y17.19790
X38.95390 Y17.17250
X38.39510 Y16.61370
X37.83630 Y16.58830
X37.81090 Y16.53750
X37.58230 Y16.43590
X37.58230 Y16.38510
X37.40450 Y16.18190
X37.35370 Y16.02950
X37.35370 Y15.44530
X37.40450 Y15.29290
X37.58230 Y15.08970
X37.58230 Y15.03890
X37.68390 Y15.01350
X37.83630 Y14.88650
X38.47130 Y14.86110
X38.62370 Y14.88650
X38.64910 Y14.93730
X38.87770 Y15.03890
X38.87770 Y15.08970
X38.95390 Y15.14050
X38.95390 Y15.19130
X39.03010 Y15.24210
X39.08090 Y15.34370
X39.10630 Y15.90250
X39.43650 Y16.23270
X43.44970 Y16.23270
X43.50050 Y16.13110
X43.57670 Y16.08030
X43.57670 Y16.02950
X43.80530 Y15.92790
X43.83070 Y15.87710
X43.98310 Y15.85170
X44.61810 Y15.87710
X44.77050 Y16.00410
X44.87210 Y16.02950
X44.87210 Y16.08030
X44.94830 Y16.13110
X44.99910 Y16.23270
X47.74230 Y16.23270
X48.50430 Y15.44530
X48.63130 Y15.39450
X49.64730 Y15.39450
X49.69810 Y15.26750
X49.82510 Y15.14050
X49.87590 Y15.14050
X50.00290 Y15.01350
X50.15530 Y14.96270
X50.79030 Y14.96270
X50.94270 Y15.01350
X51.24750 Y15.26750
X51.29830 Y15.39450
X52.08570 Y15.39450
X52.08570 Y14.96270
X53.93990 Y14.96270
X53.93990 Y16.81690
X52.08570 Y16.81690
X52.08570 Y16.35970
X51.32370 Y16.35970
X51.24750 Y16.51210
X50.94270 Y16.76610
X50.79030 Y16.81690
X50.15530 Y16.81690
X50.00290 Y16.76610
X49.87590 Y16.63910
X49.82510 Y16.63910
X49.69810 Y16.51210
X49.64730 Y16.35970
X49.06310 Y16.35970
X48.30110 Y17.14710
X48.17410 Y17.19790
X45.02450 Y17.19790
X44.87210 Y17.37570
X44.87210 Y17.42650
X44.69430 Y17.50270
X44.69430 Y26.87530
X44.64350 Y27.02770
X44.13550 Y27.53570
X44.08470 Y27.53570
X43.95770 Y27.66270
X26.02530 Y27.68810
X25.89830 Y27.63730
X25.87290 Y27.58650
G04 P0 ( dwell for no time -- G64 should not smooth over this point )
G00 Z2.00000 ( retract )

G00 X31.58790 Y31.11710 ( rapid move to begin. )
F325.00000
G01 Z-0.05000
G04 P0 ( dwell for no time -- G64 should not smooth over this point )
F650.00000
X31.58790 Y31.11710
X31.48630 Y31.06630
X31.46090 Y30.96470
X31.33390 Y30.81230
X31.33390 Y29.87250
X31.38470 Y29.84710
X31.48630 Y29.61850
X31.53710 Y29.61850
X31.68950 Y29.46610
X31.89270 Y29.38990
X32.73090 Y29.41530
X32.83250 Y29.46610
X32.88330 Y29.54230
X32.93410 Y29.54230
X32.98490 Y29.61850
X33.03570 Y29.61850
X33.11190 Y29.77090
X47.79310 Y29.77090
X54.65110 Y22.91290
X54.65110 Y8.23170
X53.15250 Y6.73310
X52.61910 Y6.73310
X52.46670 Y6.68230
X52.16190 Y6.42830
X52.11110 Y6.27590
X51.39990 Y6.27590
X51.32370 Y6.42830
X51.19670 Y6.55530
X51.14590 Y6.55530
X51.01890 Y6.68230
X50.86650 Y6.73310
X50.07910 Y6.73310
X49.92670 Y6.68230
X49.79970 Y6.55530
X49.74890 Y6.55530
X49.62190 Y6.42830
X49.57110 Y6.27590
X48.55510 Y6.27590
X48.42810 Y6.22510
X47.74230 Y5.51390
X44.89750 Y5.51390
X44.82130 Y5.59010
X44.71970 Y5.61550
X44.69430 Y5.66630
X44.33870 Y5.69170
X44.21170 Y5.76790
X39.18250 Y5.76790
X39.18250 Y6.17430
X37.27750 Y6.17430
X37.27750 Y4.26930
X39.18250 Y4.26930
X39.18250 Y4.65030
X43.27190 Y4.65030
X43.27190 Y4.37090
X43.34810 Y4.16770
X43.42430 Y4.11690
X43.50050 Y3.96450
X43.72910 Y3.86290
X43.75450 Y3.81210
X44.54190 Y3.78670
X44.69430 Y3.81210
X44.71970 Y3.86290
X44.94830 Y3.96450
X45.02450 Y4.11690
X45.10070 Y4.16770
X45.17690 Y4.39630
X48.30110 Y4.39630
X48.42810 Y4.44710
X49.11390 Y5.15830
X49.57110 Y5.15830
X49.62190 Y5.03130
X49.74890 Y4.90430
X49.79970 Y4.90430
X49.92670 Y4.77730
X50.07910 Y4.72650
X50.86650 Y4.72650
X51.01890 Y4.77730
X51.14590 Y4.90430
X51.19670 Y4.90430
X51.32370 Y5.03130
X51.37450 Y5.15830
X52.11110 Y5.15830
X52.16190 Y5.03130
X52.28890 Y4.90430
X52.33970 Y4.90430
X52.46670 Y4.77730
X52.61910 Y4.72650
X53.40650 Y4.72650
X53.55890 Y4.77730
X53.68590 Y4.90430
X53.73670 Y4.90430
X53.86370 Y5.03130
X53.88910 Y5.13290
X53.99070 Y5.25990
X54.01610 Y5.86950
X55.71790 Y7.54590
X55.76870 Y7.69830
X55.76870 Y23.44630
X55.71790 Y23.59870
X48.47890 Y30.83770
X48.35190 Y30.88850
X33.11190 Y30.88850
X33.03570 Y31.06630
X32.98490 Y31.06630
X32.83250 Y31.21870
X32.62930 Y31.29490
X31.89270 Y31.29490
X31.68950 Y31.21870
X31.58790 Y31.11710
G04 P0 ( dwell for no time -- G64 should not smooth over this point )
G00 Z2.00000 ( retract )

G00 X31.76570 Y31.11710 ( rapid move to begin. )
F325.00000
G01 Z-0.05000
G04 P0 ( dwell for no time -- G64 should not smooth over this point )
F650.00000
X31.76570 Y31.11710
X31.66410 Y31.06630
X31.61330 Y30.99010
X31.56250 Y30.99010
X31.53710 Y30.88850
X31.41010 Y30.73610
X31.38470 Y30.10110
X31.41010 Y29.94870
X31.46090 Y29.92330
X31.56250 Y29.69470
X31.61330 Y29.69470
X31.76570 Y29.54230
X31.96890 Y29.46610
X32.65470 Y29.49150
X32.75630 Y29.54230
X32.80710 Y29.61850
X32.85790 Y29.61850
X32.90870 Y29.69470
X32.95950 Y29.69470
X33.03570 Y29.84710
X47.86930 Y29.84710
X54.72730 Y22.98910
X54.72730 Y8.15550
X53.22870 Y6.65690
X52.69530 Y6.65690
X52.54290 Y6.60610
X52.23810 Y6.35210
X52.18730 Y6.19970
X51.32370 Y6.19970
X51.24750 Y6.35210
X50.94270 Y6.60610
X50.79030 Y6.65690
X50.15530 Y6.65690
X50.00290 Y6.60610
X49.87590 Y6.47910
X49.82510 Y6.47910
X49.69810 Y6.35210
X49.64730 Y6.19970
X48.63130 Y6.19970
X48.50430 Y6.14890
X47.81850 Y5.43770
X44.82130 Y5.43770
X44.74510 Y5.51390
X44.64350 Y5.53930
X44.61810 Y5.59010
X44.26250 Y5.61550
X44.13550 Y5.69170
X39.10630 Y5.69170
X39.10630 Y6.09810
X37.35370 Y6.09810
X37.35370 Y4.34550
X39.10630 Y4.34550
X39.10630 Y4.72650
X43.34810 Y4.72650
X43.34810 Y4.44710
X43.42430 Y4.24390
X43.50050 Y4.19310
X43.57670 Y4.04070
X43.67830 Y4.01530
X43.83070 Y3.88830
X44.46570 Y3.86290
X44.61810 Y3.88830
X44.64350 Y3.93910
X44.87210 Y4.04070
X44.87210 Y4.09150
X45.02450 Y4.24390
X45.10070 Y4.47250
X48.22490 Y4.47250
X48.35190 Y4.52330
X49.03770 Y5.23450
X49.64730 Y5.23450
X49.69810 Y5.10750
X49.82510 Y4.98050
X49.87590 Y4.98050
X50.00290 Y4.85350
X50.15530 Y4.80270
X50.79030 Y4.80270
X50.94270 Y4.85350
X51.24750 Y5.10750
X51.29830 Y5.23450
X52.18730 Y5.23450
X52.23810 Y5.10750
X52.36510 Y4.98050
X52.41590 Y4.98050
X52.54290 Y4.85350
X52.69530 Y4.80270
X53.33030 Y4.80270
X53.48270 Y4.85350
X53.60970 Y4.98050
X53.66050 Y4.98050
X53.78750 Y5.10750
X53.81290 Y5.20910
X53.91450 Y5.33610
X53.93990 Y5.94570
X55.64170 Y7.62210
X55.69250 Y7.77450
X55.69250 Y23.37010
X55.64170 Y23.52250
X48.40270 Y30.76150
X48.27570 Y30.81230
X33.03570 Y30.81230
X32.95950 Y30.99010
X32.90870 Y30.99010
X32.75630 Y31.14250
X32.55310 Y31.21870
X31.96890 Y31.21870
X31.76570 Y31.11710
G04 P0 ( dwell for no time -- G64 should not smooth over this point )
G00 Z2.00000 ( retract )

G00 X37.04890 Y23.49710 ( rapid move to begin. )
F325.00000
G01 Z-0.05000
G04 P0 ( dwell for no time -- G64 should not smooth over this point )
F650.00000
X37.04890 Y23.49710
X36.99810 Y23.49710
X36.99810 Y23.44630
X36.84570 Y23.26850
X33.21350 Y23.26850
X33.21350 Y23.67490
X31.30850 Y23.67490
X31.30850 Y21.76990
X31.68950 Y21.76990
X31.68950 Y12.95610
X31.76570 Y12.80370
X31.76570 Y12.37190
X31.81650 Y12.21950
X31.99430 Y12.01630
X31.99430 Y11.96550
X32.09590 Y11.94010
X32.24830 Y11.81310
X33.18810 Y11.81310
X33.21350 Y11.86390
X33.44210 Y11.96550
X33.44210 Y12.01630
X33.59450 Y12.16870
X33.67070 Y12.37190
X33.67070 Y13.10850
X33.59450 Y13.31170
X33.51830 Y13.36250
X33.44210 Y13.51490
X33.34050 Y13.54030
X33.18810 Y13.66730
X32.80710 Y13.69270
X32.80710 Y21.76990
X33.21350 Y21.76990
X33.21350 Y22.15090
X36.87110 Y22.15090
X36.92190 Y22.04930
X36.99810 Y21.99850
X36.99810 Y21.94770
X37.09970 Y21.92230
X37.25210 Y21.79530
X37.40450 Y21.76990
X38.19190 Y21.79530
X38.21730 Y21.84610
X38.44590 Y21.94770
X38.44590 Y21.99850
X38.59830 Y22.15090
X38.67450 Y22.35410
X38.67450 Y23.09070
X38.59830 Y23.29390
X38.52210 Y23.34470
X38.44590 Y23.49710
X38.21730 Y23.59870
X38.19190 Y23.64950
X38.03950 Y23.67490
X37.25210 Y23.64950
X37.22670 Y23.59870
X37.12510 Y23.57330
X37.04890 Y23.49710
G04 P0 ( dwell for no time -- G64 should not smooth over this point )
G00 Z2.00000 ( retract )

G00 X37.25210 Y23.49710 ( rapid move to begin. )
F325.00000
G01 Z-0.05000
G04 P0 ( dwell for no time -- G64 should not smooth over this point )
F650.00000
X37.25210 Y23.49710
X37.07430 Y23.42090
X37.07430 Y23.37010
X36.92190 Y23.19230
X33.13730 Y23.19230
X33.13730 Y23.59870
X31.38470 Y23.59870
X31.38470 Y21.84610
X31.76570 Y21.84610
X31.76570 Y13.03230
X31.84190 Y12.87990
X31.84190 Y12.44810
X31.89270 Y12.29570
X32.07050 Y12.09250
X32.07050 Y12.04170
X32.17210 Y12.01630
X32.32450 Y11.88930
X33.11190 Y11.88930
X33.13730 Y11.94010
X33.36590 Y12.04170
X33.36590 Y12.09250
X33.51830 Y12.24490
X33.59450 Y12.44810
X33.59450 Y13.03230
X33.51830 Y13.23550
X33.44210 Y13.28630
X33.36590 Y13.43870
X33.26430 Y13.46410
X33.11190 Y13.59110
X32.73090 Y13.61650
X32.73090 Y21.84610
X33.13730 Y21.84610
X33.13730 Y22.22710
X36.94730 Y22.22710
X36.99810 Y22.12550
X37.07430 Y22.07470
X37.07430 Y22.02390
X37.17590 Y21.99850
X37.32830 Y21.87150
X37.48070 Y21.84610
X38.11570 Y21.87150
X38.14110 Y21.92230
X38.36970 Y22.02390
X38.36970 Y22.07470
X38.52210 Y22.22710
X38.59830 Y22.43030
X38.59830 Y23.01450
X38.52210 Y23.21770
X38.44590 Y23.26850
X38.36970 Y23.42090
X38.26810 Y23.44630
X38.11570 Y23.57330
X37.96330 Y23.59870
X37.48070 Y23.59870
X37.32830 Y23.57330
X37.25210 Y23.49710
G04 P0 ( dwell for no time -- G64 should not smooth over this point )
G00 Z2.00000 ( retract )

G00 X49.79970 Y11.63530 ( rapid move to begin. )
F325.00000
G01 Z-0.05000
G04 P0 ( dwell for no time -- G64 should not smooth over this point )
F650.00000
X49.79970 Y11.63530
X49.74890 Y11.63530
X49.62190 Y11.50830
X49.57110 Y11.35590
X49.49490 Y11.27970
X49.46950 Y11.12730
X49.46950 Y10.49230
X49.49490 Y10.33990
X49.57110 Y10.26370
X49.62190 Y10.11130
X49.85050 Y9.90810
X50.07910 Y9.80650
X50.86650 Y9.80650
X51.01890 Y9.85730
X51.14590 Y9.98430
X51.19670 Y9.98430
X51.39990 Y10.23830
X51.47610 Y10.49230
X51.47610 Y11.12730
X51.45070 Y11.27970
X51.34910 Y11.40670
X51.32370 Y11.50830
X51.09510 Y11.71150
X50.86650 Y11.81310
X50.07910 Y11.81310
X49.92670 Y11.76230
X49.79970 Y11.63530
G04 P0 ( dwell for no time -- G64 should not smooth over this point )
G00 Z2.00000 ( retract )

G00 X49.97750 Y11.63530 ( rapid move to begin. )
F325.00000
G01 Z-0.05000
G04 P0 ( dwell for no time -- G64 should not smooth over this point )
F650.00000
X49.97750 Y11.63530
X49.92670 Y11.63530
X49.69810 Y11.43210
X49.64730 Y11.27970
X49.57110 Y11.20350
X49.54570 Y10.56850
X49.59650 Y10.36530
X49.64730 Y10.33990
X49.69810 Y10.18750
X49.82510 Y10.06050
X49.87590 Y10.06050
X50.00290 Y9.93350
X50.15530 Y9.88270
X50.79030 Y9.88270
X50.94270 Y9.93350
X51.24750 Y10.18750
X51.27290 Y10.28910
X51.37450 Y10.41610
X51.39990 Y11.05110
X51.32370 Y11.30510
X51.12050 Y11.55910
X51.06970 Y11.55910
X50.94270 Y11.68610
X50.79030 Y11.73690
X50.15530 Y11.73690
X50.00290 Y11.68610
X49.97750 Y11.63530
G04 P0 ( dwell for no time -- G64 should not smooth over this point )
G00 Z2.00000 ( retract )

G00 X52.33970 Y11.63530 ( rapid move to begin. )
F325.00000
G01 Z-0.05000
G04 P0 ( dwell for no time -- G64 should not smooth over this point )
F650.00000
X52.33970 Y11.63530
X52.28890 Y11.63530
X52.16190 Y11.50830
X52.11110 Y11.35590
X52.03490 Y11.27970
X52.00950 Y11.12730
X52.00950 Y10.49230
X52.03490 Y10.33990
X52.11110 Y10.26370
X52.16190 Y10.11130
X52.39050 Y9.90810
X52.61910 Y9.80650
X53.40650 Y9.80650
X53.55890 Y9.85730
X53.68590 Y9.98430
X53.73670 Y9.98430
X53.93990 Y10.23830
X54.01610 Y10.49230
X54.01610 Y11.12730
X53.99070 Y11.27970
X53.88910 Y11.40670
X53.86370 Y11.50830
X53.63510 Y11.71150
X53.40650 Y11.81310
X52.61910 Y11.81310
X52.46670 Y11.76230
X52.33970 Y11.63530
G04 P0 ( dwell for no time -- G64 should not smooth over this point )
G00 Z2.00000 ( retract )

G00 X52.51750 Y11.63530 ( rapid move to begin. )
F325.00000
G01 Z-0.05000
G04 P0 ( dwell for no time -- G64 should not smooth over this point )
F650.00000
X52.51750 Y11.63530
X52.46670 Y11.63530
X52.23810 Y11.43210
X52.18730 Y11.27970
X52.11110 Y11.20350
X52.08570 Y10.56850
X52.13650 Y10.36530
X52.36510 Y10.06050
X52.41590 Y10.06050
X52.54290 Y9.93350
X52.69530 Y9.88270
X53.33030 Y9.88270
X53.48270 Y9.93350
X53.78750 Y10.18750
X53.81290 Y10.28910
X53.91450 Y10.41610
X53.93990 Y11.05110
X53.86370 Y11.30510
X53.66050 Y11.55910
X53.60970 Y11.55910
X53.48270 Y11.68610
X53.33030 Y11.73690
X52.69530 Y11.73690
X52.54290 Y11.68610
X52.51750 Y11.63530
G04 P0 ( dwell for no time -- G64 should not smooth over this point )
G00 Z2.00000 ( retract )

G00 X27.75250 Y39.85470 ( rapid move to begin. )
F325.00000
G01 Z-0.05000
G04 P0 ( dwell for no time -- G64 should not smooth over this point )
F650.00000
X27.75250 Y39.85470
X27.57470 Y39.77850
X27.57470 Y39.72770
X27.42230 Y39.57530
X27.34610 Y39.37210
X27.34610 Y38.78790
X27.42230 Y38.58470
X27.49850 Y38.53390
X27.57470 Y38.38150
X27.67630 Y38.35610
X27.82870 Y38.22910
X28.48910 Y38.22910
X31.35930 Y35.35890
X31.35930 Y35.07950
X29.27650 Y33.02210
X29.22570 Y32.86970
X29.22570 Y31.11710
X29.12410 Y31.06630
X29.07330 Y30.99010
X29.02250 Y30.99010
X28.99710 Y30.88850
X28.87010 Y30.73610
X28.84470 Y30.58370
X28.87010 Y29.94870
X28.92090 Y29.92330
X29.02250 Y29.69470
X29.07330 Y29.69470
X29.12410 Y29.61850
X29.17490 Y29.61850
X29.22570 Y29.54230
X29.32730 Y29.49150
X30.01310 Y29.46610
X30.21630 Y29.54230
X30.36870 Y29.69470
X30.41950 Y29.69470
X30.44490 Y29.79630
X30.57190 Y29.94870
X30.59730 Y30.10110
X30.57190 Y30.73610
X30.52110 Y30.76150
X30.41950 Y30.99010
X30.36870 Y30.99010
X30.19090 Y31.14250
X30.19090 Y32.48870
X30.26710 Y32.51410
X32.07050 Y34.34290
X32.62930 Y34.36830
X32.78170 Y34.49530
X32.88330 Y34.52070
X32.88330 Y34.57150
X33.03570 Y34.72390
X33.11190 Y34.92710
X33.11190 Y35.51130
X33.03570 Y35.71450
X32.95950 Y35.76530
X32.88330 Y35.91770
X32.78170 Y35.94310
X32.62930 Y36.07010
X32.04510 Y36.09550
X29.09870 Y39.04190
X29.07330 Y39.47370
X29.02250 Y39.57530
X28.94630 Y39.62610
X28.94630 Y39.67690
X28.87010 Y39.72770
X28.87010 Y39.77850
X28.76850 Y39.80390
X28.61610 Y39.93090
X28.46370 Y39.95630
X27.98110 Y39.95630
X27.82870 Y39.93090
X27.75250 Y39.85470
G04 P0 ( dwell for no time -- G64 should not smooth over this point )
G00 Z2.00000 ( retract )

G00 X27.60010 Y39.85470 ( rapid move to begin. )
F325.00000
G01 Z-0.05000
G04 P0 ( dwell for no time -- G64 should not smooth over this point )
F650.00000
X27.60010 Y39.85470
X27.52390 Y39.82930
X27.52390 Y39.77850
X27.32070 Y39.60070
X27.26990 Y39.44830
X27.26990 Y38.71170
X27.34610 Y38.50850
X27.42230 Y38.45770
X27.49850 Y38.30530
X27.60010 Y38.27990
X27.75250 Y38.15290
X28.43830 Y38.12750
X31.28310 Y35.28270
X31.28310 Y35.15570
X29.20030 Y33.09830
X29.14950 Y32.94590
X29.14950 Y31.19330
X29.04790 Y31.14250
X28.99710 Y31.06630
X28.94630 Y31.06630
X28.92090 Y30.96470
X28.79390 Y30.81230
X28.76850 Y30.65990
X28.79390 Y29.87250
X28.84470 Y29.84710
X28.94630 Y29.61850
X28.99710 Y29.61850
X29.04790 Y29.54230
X29.09870 Y29.54230
X29.14950 Y29.46610
X29.25110 Y29.41530
X30.08930 Y29.38990
X30.29250 Y29.46610
X30.44490 Y29.61850
X30.49570 Y29.61850
X30.52110 Y29.72010
X30.64810 Y29.87250
X30.67350 Y30.02490
X30.64810 Y30.81230
X30.59730 Y30.83770
X30.49570 Y31.06630
X30.44490 Y31.06630
X30.26710 Y31.21870
X30.26710 Y32.41250
X30.34330 Y32.43790
X32.14670 Y34.26670
X32.70550 Y34.29210
X32.73090 Y34.34290
X32.95950 Y34.44450
X32.95950 Y34.49530
X33.11190 Y34.64770
X33.18810 Y34.85090
X33.18810 Y35.58750
X33.11190 Y35.79070
X33.03570 Y35.84150
X32.95950 Y35.99390
X32.73090 Y36.09550
X32.70550 Y36.14630
X32.12130 Y36.17170
X29.17490 Y39.11810
X29.14950 Y39.54990
X29.09870 Y39.65150
X29.02250 Y39.70230
X29.02250 Y39.75310
X28.94630 Y39.80390
X28.94630 Y39.85470
X28.84470 Y39.88010
X28.69230 Y40.00710
X28.53990 Y40.03250
X27.75250 Y40.00710
X27.60010 Y39.85470
G04 P0 ( dwell for no time -- G64 should not smooth over this point )
G00 Z2.00000 ( retract )

G00 X27.06670 Y41.07390 ( rapid move to begin. )
F325.00000
G01 Z-0.05000
G04 P0 ( dwell for no time -- G64 should not smooth over this point )
F650.00000
X27.06670 Y41.07390
X24.32350 Y38.33070
X23.81550 Y38.33070
X23.18050 Y38.96570
X23.15510 Y39.54990
X23.10430 Y39.65150
X23.02810 Y39.70230
X23.02810 Y39.75310
X22.95190 Y39.80390
X22.95190 Y39.85470
X22.85030 Y39.88010
X22.69790 Y40.00710
X22.54550 Y40.03250
X21.75810 Y40.00710
X21.73270 Y39.95630
X21.50410 Y39.85470
X21.50410 Y39.80390
X21.35170 Y39.65150
X21.27550 Y39.44830
X21.27550 Y38.71170
X21.35170 Y38.50850
X21.42790 Y38.45770
X21.50410 Y38.30530
X21.60570 Y38.27990
X21.75810 Y38.15290
X22.29150 Y38.12750
X23.18050 Y37.23850
X24.32350 Y37.21310
X24.37430 Y37.11150
X26.27930 Y35.23190
X26.27930 Y34.85090
X26.33010 Y34.69850
X26.50790 Y34.49530
X26.50790 Y34.44450
X26.60950 Y34.41910
X26.60950 Y31.19330
X26.50790 Y31.14250
X26.45710 Y31.06630
X26.40630 Y31.06630
X26.30470 Y30.83770
X26.25390 Y30.81230
X26.22850 Y30.02490
X26.25390 Y29.87250
X26.30470 Y29.84710
X26.40630 Y29.61850
X26.45710 Y29.61850
X26.60950 Y29.46610
X26.81270 Y29.38990
X27.65090 Y29.41530
X27.75250 Y29.46610
X27.80330 Y29.54230
X27.85410 Y29.54230
X27.90490 Y29.61850
X27.95570 Y29.61850
X27.98110 Y29.72010
X28.10810 Y29.87250
X28.13350 Y30.02490
X28.10810 Y30.81230
X28.05730 Y30.83770
X27.95570 Y31.06630
X27.90490 Y31.06630
X27.72710 Y31.21870
X27.72710 Y34.34290
X27.95570 Y34.44450
X27.95570 Y34.49530
X28.03190 Y34.54610
X28.03190 Y34.59690
X28.10810 Y34.64770
X28.15890 Y34.74930
X28.18430 Y35.58750
X28.10810 Y35.79070
X28.03190 Y35.84150
X27.95570 Y35.99390
X27.72710 Y36.09550
X27.70170 Y36.14630
X27.09210 Y36.17170
X25.49190 Y37.77190
X27.85410 Y40.13410
X33.82310 Y40.13410
X35.77890 Y38.17830
X36.87110 Y38.15290
X36.94730 Y38.00050
X36.99810 Y38.00050
X37.04890 Y37.92430
X37.09970 Y37.92430
X37.15050 Y37.84810
X37.25210 Y37.79730
X38.09030 Y37.77190
X38.29350 Y37.84810
X38.34430 Y37.92430
X38.49670 Y38.00050
X38.52210 Y38.10210
X38.64910 Y38.25450
X38.64910 Y39.19430
X38.59830 Y39.21970
X38.49670 Y39.44830
X38.34430 Y39.52450
X38.29350 Y39.60070
X38.09030 Y39.67690
X37.35370 Y39.67690
X37.15050 Y39.60070
X37.09970 Y39.52450
X36.94730 Y39.44830
X36.87110 Y39.27050
X36.41390 Y39.27050
X34.50890 Y41.20090
X34.38190 Y41.25170
X27.29530 Y41.25170
X27.16830 Y41.20090
X27.06670 Y41.07390
G04 P0 ( dwell for no time -- G64 should not smooth over this point )
G00 Z2.00000 ( retract )

G00 X27.21910 Y41.07390 ( rapid move to begin. )
F325.00000
G01 Z-0.05000
G04 P0 ( dwell for no time -- G64 should not smooth over this point )
F650.00000
X27.21910 Y41.07390
X24.39970 Y38.25450
X23.73930 Y38.25450
X23.10430 Y38.88950
X23.07890 Y39.47370
X23.02810 Y39.57530
X22.95190 Y39.62610
X22.95190 Y39.67690
X22.87570 Y39.72770
X22.87570 Y39.77850
X22.77410 Y39.80390
X22.62170 Y39.93090
X22.46930 Y39.95630
X21.83430 Y39.93090
X21.80890 Y39.88010
X21.58030 Y39.77850
X21.58030 Y39.72770
X21.42790 Y39.57530
X21.35170 Y39.37210
X21.35170 Y38.78790
X21.42790 Y38.58470
X21.50410 Y38.53390
X21.58030 Y38.38150
X21.68190 Y38.35610
X21.83430 Y38.22910
X22.36770 Y38.20370
X23.25670 Y37.31470
X24.39970 Y37.28930
X24.45050 Y37.18770
X26.35550 Y35.30810
X26.35550 Y34.92710
X26.40630 Y34.77470
X26.58410 Y34.57150
X26.58410 Y34.52070
X26.68570 Y34.49530
X26.68570 Y31.11710
X26.58410 Y31.06630
X26.53330 Y30.99010
X26.48250 Y30.99010
X26.45710 Y30.88850
X26.33010 Y30.73610
X26.30470 Y30.10110
X26.33010 Y29.94870
X26.38090 Y29.92330
X26.48250 Y29.69470
X26.53330 Y29.69470
X26.68570 Y29.54230
X26.88890 Y29.46610
X27.57470 Y29.49150
X27.67630 Y29.54230
X27.72710 Y29.61850
X27.77790 Y29.61850
X27.82870 Y29.69470
X27.87950 Y29.69470
X27.90490 Y29.79630
X28.03190 Y29.94870
X28.05730 Y30.10110
X28.03190 Y30.73610
X27.98110 Y30.76150
X27.87950 Y30.99010
X27.82870 Y30.99010
X27.65090 Y31.14250
X27.65090 Y34.41910
X27.87950 Y34.52070
X27.87950 Y34.57150
X27.95570 Y34.62230
X27.95570 Y34.67310
X28.03190 Y34.72390
X28.08270 Y34.82550
X28.10810 Y35.51130
X28.03190 Y35.71450
X27.95570 Y35.76530
X27.87950 Y35.91770
X27.77790 Y35.94310
X27.62550 Y36.07010
X27.01590 Y36.09550
X25.33950 Y37.77190
X27.77790 Y40.21030
X33.89930 Y40.21030
X35.85510 Y38.25450
X36.94730 Y38.22910
X37.02350 Y38.07670
X37.07430 Y38.07670
X37.12510 Y38.00050
X37.17590 Y38.00050
X37.22670 Y37.92430
X37.32830 Y37.87350
X38.01410 Y37.84810
X38.21730 Y37.92430
X38.26810 Y38.00050
X38.42050 Y38.07670
X38.44590 Y38.17830
X38.57290 Y38.33070
X38.59830 Y38.48310
X38.57290 Y39.11810
X38.52210 Y39.14350
X38.42050 Y39.37210
X38.36970 Y39.37210
X38.21730 Y39.52450
X38.01410 Y39.60070
X37.42990 Y39.60070
X37.22670 Y39.52450
X37.07430 Y39.37210
X37.02350 Y39.37210
X36.94730 Y39.19430
X36.33770 Y39.19430
X34.43270 Y41.12470
X34.30570 Y41.17550
X27.37150 Y41.17550
X27.24450 Y41.12470
X27.21910 Y41.07390
G04 P0 ( dwell for no time -- G64 should not smooth over this point )
G00 Z2.00000 ( retract )

G00 X17.38930 Y53.01190 ( rapid move to begin. )
F325.00000
G01 Z-0.05000
G04 P0 ( dwell for no time -- G64 should not smooth over this point )
F650.00000
X17.38930 Y53.01190
X17.28770 Y52.96110
X17.23690 Y52.88490
X17.18610 Y52.88490
X17.16070 Y52.78330
X17.03370 Y52.63090
X17.00830 Y52.47850
X17.03370 Y51.84350
X17.08450 Y51.81810
X17.18610 Y51.58950
X17.23690 Y51.58950
X17.28770 Y51.51330
X17.38930 Y51.46250
X17.38930 Y38.50850
X17.28770 Y38.45770
X17.23690 Y38.38150
X17.18610 Y38.38150
X17.16070 Y38.27990
X17.03370 Y38.12750
X17.00830 Y37.97510
X17.03370 Y37.34010
X17.08450 Y37.31470
X17.18610 Y37.08610
X17.23690 Y37.08610
X17.28770 Y37.00990
X17.38930 Y36.95910
X17.38930 Y24.00510
X17.28770 Y23.95430
X17.23690 Y23.87810
X17.18610 Y23.87810
X17.16070 Y23.77650
X17.03370 Y23.62410
X17.00830 Y23.47170
X17.03370 Y22.83670
X17.08450 Y22.81130
X17.18610 Y22.58270
X17.23690 Y22.58270
X17.28770 Y22.50650
X17.38930 Y22.45570
X17.38930 Y21.84610
X17.28770 Y21.76990
X17.23690 Y21.61750
X17.23690 Y19.00130
X17.08450 Y18.92510
X17.08450 Y18.87430
X16.93210 Y18.72190
X16.85590 Y18.51870
X16.85590 Y17.93450
X16.90670 Y17.78210
X17.08450 Y17.57890
X17.08450 Y17.52810
X17.23690 Y17.45190
X17.23690 Y10.31450
X17.28770 Y10.16210
X17.38930 Y10.08590
X17.38930 Y9.50170
X17.28770 Y9.45090
X17.23690 Y9.37470
X17.18610 Y9.37470
X17.16070 Y9.27310
X17.03370 Y9.12070
X17.00830 Y8.48570
X17.03370 Y8.33330
X17.08450 Y8.30790
X17.18610 Y8.07930
X17.23690 Y8.07930
X17.38930 Y7.92690
X17.59250 Y7.85070
X18.17670 Y7.85070
X18.37990 Y7.92690
X18.43070 Y8.00310
X18.58310 Y8.07930
X18.60850 Y8.18090
X18.73550 Y8.33330
X18.76090 Y8.48570
X18.73550 Y9.12070
X18.68470 Y9.14610
X18.58310 Y9.37470
X18.53230 Y9.37470
X18.35450 Y9.52710
X18.35450 Y10.46690
X18.30370 Y10.61930
X18.20210 Y10.69550
X18.20210 Y17.45190
X18.37990 Y17.52810
X18.37990 Y17.57890
X18.53230 Y17.73130
X18.60850 Y17.93450
X18.58310 Y18.62030
X18.53230 Y18.72190
X18.45610 Y18.77270
X18.45610 Y18.82350
X18.37990 Y18.87430
X18.37990 Y18.92510
X18.20210 Y19.00130
X18.20210 Y21.23650
X18.30370 Y21.31270
X18.35450 Y21.46510
X18.35450 Y22.43030
X18.53230 Y22.58270
X18.58310 Y22.58270
X18.68470 Y22.81130
X18.73550 Y22.83670
X18.76090 Y22.98910
X18.73550 Y23.62410
X18.68470 Y23.64950
X18.58310 Y23.87810
X18.53230 Y23.87810
X18.35450 Y24.03050
X18.35450 Y36.93370
X18.53230 Y37.08610
X18.58310 Y37.08610
X18.68470 Y37.31470
X18.73550 Y37.34010
X18.76090 Y37.49250
X18.73550 Y38.12750
X18.68470 Y38.15290
X18.58310 Y38.38150
X18.53230 Y38.38150
X18.35450 Y38.53390
X18.35450 Y51.43710
X18.53230 Y51.58950
X18.58310 Y51.58950
X18.68470 Y51.81810
X18.73550 Y51.84350
X18.76090 Y52.47850
X18.73550 Y52.63090
X18.68470 Y52.65630
X18.58310 Y52.88490
X18.53230 Y52.88490
X18.48150 Y52.96110
X18.43070 Y52.96110
X18.37990 Y53.03730
X18.27830 Y53.08810
X17.59250 Y53.11350
X17.38930 Y53.01190
G04 P0 ( dwell for no time -- G64 should not smooth over this point )
G00 Z2.00000 ( retract )

G00 X17.21150 Y53.01190 ( rapid move to begin. )
F325.00000
G01 Z-0.05000
G04 P0 ( dwell for no time -- G64 should not smooth over this point )
F650.00000
X17.21150 Y53.01190
X17.10990 Y52.96110
X17.08450 Y52.85950
X16.95750 Y52.70710
X16.93210 Y51.91970
X16.95750 Y51.76730
X17.00830 Y51.74190
X17.10990 Y51.51330
X17.16070 Y51.51330
X17.21150 Y51.43710
X17.31310 Y51.38630
X17.31310 Y38.58470
X17.21150 Y38.53390
X17.16070 Y38.45770
X17.10990 Y38.45770
X17.08450 Y38.35610
X16.95750 Y38.20370
X16.93210 Y37.41630
X16.95750 Y37.26390
X17.00830 Y37.23850
X17.10990 Y37.00990
X17.16070 Y37.00990
X17.21150 Y36.93370
X17.31310 Y36.88290
X17.31310 Y24.08130
X17.21150 Y24.03050
X17.16070 Y23.95430
X17.10990 Y23.95430
X17.08450 Y23.85270
X16.95750 Y23.70030
X16.93210 Y22.91290
X16.95750 Y22.76050
X17.00830 Y22.73510
X17.10990 Y22.50650
X17.16070 Y22.50650
X17.21150 Y22.43030
X17.31310 Y22.37950
X17.31310 Y21.92230
X17.21150 Y21.84610
X17.16070 Y21.69370
X17.16070 Y19.07750
X17.00830 Y19.00130
X17.00830 Y18.95050
X16.85590 Y18.79810
X16.77970 Y18.59490
X16.77970 Y17.85830
X16.85590 Y17.65510
X16.93210 Y17.60430
X17.00830 Y17.45190
X17.16070 Y17.37570
X17.16070 Y10.23830
X17.21150 Y10.08590
X17.31310 Y10.00970
X17.31310 Y9.57790
X17.21150 Y9.52710
X17.16070 Y9.45090
X17.10990 Y9.45090
X17.08450 Y9.34930
X16.95750 Y9.19690
X16.93210 Y8.40950
X16.95750 Y8.25710
X17.08450 Y8.10470
X17.10990 Y8.00310
X17.16070 Y8.00310
X17.21150 Y7.92690
X17.26230 Y7.92690
X17.31310 Y7.85070
X17.41470 Y7.79990
X18.25290 Y7.77450
X18.45610 Y7.85070
X18.50690 Y7.92690
X18.65930 Y8.00310
X18.68470 Y8.10470
X18.81170 Y8.25710
X18.83710 Y8.40950
X18.81170 Y9.19690
X18.76090 Y9.22230
X18.65930 Y9.45090
X18.60850 Y9.45090
X18.43070 Y9.60330
X18.43070 Y10.54310
X18.37990 Y10.69550
X18.27830 Y10.77170
X18.27830 Y17.37570
X18.45610 Y17.45190
X18.45610 Y17.50270
X18.60850 Y17.65510
X18.68470 Y17.85830
X18.65930 Y18.69650
X18.60850 Y18.79810
X18.53230 Y18.84890
X18.53230 Y18.89970
X18.45610 Y18.95050
X18.45610 Y19.00130
X18.27830 Y19.07750
X18.27830 Y21.16030
X18.37990 Y21.23650
X18.43070 Y21.38890
X18.43070 Y22.35410
X18.60850 Y22.50650
X18.65930 Y22.50650
X18.76090 Y22.73510
X18.81170 Y22.76050
X18.83710 Y22.91290
X18.81170 Y23.70030
X18.68470 Y23.85270
X18.65930 Y23.95430
X18.60850 Y23.95430
X18.43070 Y24.10670
X18.43070 Y36.85750
X18.60850 Y37.00990
X18.65930 Y37.00990
X18.68470 Y37.11150
X18.81170 Y37.26390
X18.83710 Y37.41630
X18.81170 Y38.20370
X18.76090 Y38.22910
X18.65930 Y38.45770
X18.60850 Y38.45770
X18.43070 Y38.61010
X18.43070 Y51.36090
X18.60850 Y51.51330
X18.65930 Y51.51330
X18.76090 Y51.74190
X18.81170 Y51.76730
X18.83710 Y52.55470
X18.81170 Y52.70710
X18.68470 Y52.85950
X18.65930 Y52.96110
X18.60850 Y52.96110
X18.55770 Y53.03730
X18.50690 Y53.03730
X18.45610 Y53.11350
X18.35450 Y53.16430
X17.51630 Y53.18970
X17.31310 Y53.11350
X17.21150 Y53.01190
G04 P0 ( dwell for no time -- G64 should not smooth over this point )
G00 Z2.00000 ( retract )

G00 X24.22190 Y58.04110 ( rapid move to begin. )
F325.00000
G01 Z-0.05000
G04 P0 ( dwell for no time -- G64 should not smooth over this point )
F650.00000
X24.22190 Y58.04110
X24.22190 Y56.21230
X24.65370 Y56.21230
X24.65370 Y52.52930
X23.51070 Y51.38630
X21.96130 Y51.38630
X21.83430 Y51.33550
X21.70730 Y51.20850
X21.65650 Y51.05610
X21.65650 Y50.09090
X21.55490 Y50.04010
X21.50410 Y49.96390
X21.45330 Y49.96390
X21.42790 Y49.86230
X21.30090 Y49.70990
X21.27550 Y49.55750
X21.30090 Y48.77010
X21.35170 Y48.74470
X21.45330 Y48.51610
X21.50410 Y48.51610
X21.55490 Y48.43990
X21.60570 Y48.43990
X21.65650 Y48.36370
X21.75810 Y48.31290
X22.59630 Y48.28750
X22.79950 Y48.36370
X22.95190 Y48.51610
X23.00270 Y48.51610
X23.02810 Y48.61770
X23.15510 Y48.77010
X23.18050 Y49.55750
X23.15510 Y49.70990
X23.10430 Y49.73530
X23.00270 Y49.96390
X22.95190 Y49.96390
X22.77410 Y50.11630
X22.77410 Y50.26870
X24.14570 Y50.29410
X25.51730 Y51.66570
X26.50790 Y51.66570
X27.65090 Y50.52270
X27.65090 Y50.09090
X27.54930 Y50.04010
X27.49850 Y49.96390
X27.44770 Y49.96390
X27.42230 Y49.86230
X27.29530 Y49.70990
X27.26990 Y49.55750
X27.29530 Y48.77010
X27.34610 Y48.74470
X27.44770 Y48.51610
X27.49850 Y48.51610
X27.65090 Y48.36370
X27.85410 Y48.28750
X28.69230 Y48.31290
X28.79390 Y48.36370
X28.84470 Y48.43990
X28.89550 Y48.43990
X28.94630 Y48.51610
X28.99710 Y48.51610
X29.02250 Y48.61770
X29.14950 Y48.77010
X29.17490 Y48.92250
X29.14950 Y49.70990
X29.02250 Y49.86230
X28.99710 Y49.96390
X28.94630 Y49.96390
X28.76850 Y50.11630
X28.76850 Y51.05610
X28.71770 Y51.20850
X27.19370 Y52.73250
X27.06670 Y52.78330
X25.77130 Y52.78330
X25.77130 Y56.21230
X26.22850 Y56.21230
X26.22850 Y58.21890
X24.22190 Y58.21890
X24.22190 Y58.04110
G04 P0 ( dwell for no time -- G64 should not smooth over this point )
G00 Z2.00000 ( retract )

G00 X24.29810 Y58.04110 ( rapid move to begin. )
F325.00000
G01 Z-0.05000
G04 P0 ( dwell for no time -- G64 should not smooth over this point )
F650.00000
X24.29810 Y58.04110
X24.29810 Y56.28850
X24.72990 Y56.28850
X24.72990 Y52.45310
X23.58690 Y51.31010
X22.03750 Y51.31010
X21.91050 Y51.25930
X21.78350 Y51.13230
X21.73270 Y50.97990
X21.73270 Y50.01470
X21.63110 Y49.96390
X21.58030 Y49.88770
X21.52950 Y49.88770
X21.50410 Y49.78610
X21.37710 Y49.63370
X21.35170 Y49.48130
X21.37710 Y48.84630
X21.50410 Y48.69390
X21.52950 Y48.59230
X21.58030 Y48.59230
X21.63110 Y48.51610
X21.68190 Y48.51610
X21.73270 Y48.43990
X21.83430 Y48.38910
X22.52010 Y48.36370
X22.72330 Y48.43990
X22.87570 Y48.59230
X22.92650 Y48.59230
X22.95190 Y48.69390
X23.07890 Y48.84630
X23.10430 Y49.48130
X23.07890 Y49.63370
X23.02810 Y49.65910
X22.92650 Y49.88770
X22.87570 Y49.88770
X22.69790 Y50.04010
X22.69790 Y50.34490
X24.06950 Y50.37030
X25.44110 Y51.74190
X26.58410 Y51.74190
X27.72710 Y50.59890
X27.72710 Y50.01470
X27.62550 Y49.96390
X27.57470 Y49.88770
X27.52390 Y49.88770
X27.49850 Y49.78610
X27.37150 Y49.63370
X27.34610 Y49.48130
X27.37150 Y48.84630
X27.42230 Y48.82090
X27.52390 Y48.59230
X27.57470 Y48.59230
X27.72710 Y48.43990
X27.93030 Y48.36370
X28.61610 Y48.38910
X28.71770 Y48.43990
X28.76850 Y48.51610
X28.81930 Y48.51610
X28.87010 Y48.59230
X28.92090 Y48.59230
X28.94630 Y48.69390
X29.07330 Y48.84630
X29.09870 Y48.99870
X29.07330 Y49.63370
X29.02250 Y49.65910
X28.92090 Y49.88770
X28.87010 Y49.88770
X28.69230 Y50.04010
X28.69230 Y50.97990
X28.64150 Y51.13230
X27.11750 Y52.65630
X26.99050 Y52.70710
X25.69510 Y52.70710
X25.69510 Y56.28850
X26.15230 Y56.28850
X26.15230 Y58.14270
X24.29810 Y58.14270
X24.29810 Y58.04110
G04 P0 ( dwell for no time -- G64 should not smooth over this point )
G00 Z2.00000 ( retract )

G00 X37.22670 Y53.59610 ( rapid move to begin. )
F325.00000
G01 Z-0.05000
G04 P0 ( dwell for no time -- G64 should not smooth over this point )
F650.00000
X37.22670 Y53.59610
X31.46090 Y47.83030
X23.94250 Y47.80490
X19.21810 Y43.10590
X19.16730 Y42.95350
X19.19270 Y19.76330
X19.42130 Y19.53470
X19.42130 Y19.48390
X21.19930 Y17.70590
X21.32630 Y17.65510
X21.88510 Y17.65510
X21.93590 Y17.55350
X22.01210 Y17.50270
X22.01210 Y17.45190
X22.11370 Y17.42650
X22.26610 Y17.29950
X22.79950 Y17.27410
X23.40910 Y16.66450
X23.40910 Y16.23270
X23.45990 Y16.08030
X26.78730 Y12.77830
X26.78730 Y12.37190
X26.83810 Y12.21950
X27.01590 Y12.01630
X27.01590 Y11.96550
X27.11750 Y11.94010
X27.26990 Y11.81310
X28.05730 Y11.78770
X28.20970 Y11.81310
X28.36210 Y11.94010
X28.46370 Y11.96550
X28.46370 Y12.01630
X28.61610 Y12.16870
X28.69230 Y12.37190
X28.69230 Y13.10850
X28.61610 Y13.31170
X28.53990 Y13.36250
X28.46370 Y13.51490
X28.36210 Y13.54030
X28.20970 Y13.66730
X27.62550 Y13.69270
X24.90770 Y16.41050
X27.21910 Y16.41050
X27.34610 Y16.46130
X30.21630 Y19.33150
X30.26710 Y19.48390
X30.26710 Y21.84610
X30.44490 Y21.99850
X30.49570 Y21.99850
X30.52110 Y22.10010
X30.64810 Y22.25250
X30.67350 Y22.40490
X30.64810 Y23.19230
X30.59730 Y23.21770
X30.49570 Y23.44630
X30.44490 Y23.44630
X30.29250 Y23.59870
X30.08930 Y23.67490
X29.35270 Y23.67490
X29.14950 Y23.59870
X28.99710 Y23.44630
X28.94630 Y23.44630
X28.92090 Y23.34470
X28.79390 Y23.19230
X28.76850 Y22.40490
X28.79390 Y22.25250
X28.92090 Y22.10010
X28.94630 Y21.99850
X28.99710 Y21.99850
X29.04790 Y21.92230
X29.14950 Y21.87150
X29.14950 Y20.01730
X26.66030 Y17.52810
X24.27270 Y17.52810
X23.68850 Y18.11230
X23.66310 Y18.69650
X23.61230 Y18.79810
X23.53610 Y18.84890
X23.53610 Y18.89970
X23.45990 Y18.95050
X23.45990 Y19.00130
X23.35830 Y19.02670
X23.20590 Y19.15370
X22.41850 Y19.17910
X22.26610 Y19.15370
X22.11370 Y19.02670
X22.01210 Y19.00130
X22.01210 Y18.95050
X21.93590 Y18.89970
X21.88510 Y18.79810
X20.28490 Y20.39830
X20.28490 Y42.42010
X24.57750 Y46.71270
X32.01970 Y46.71270
X32.14670 Y46.76350
X38.01410 Y52.65630
X53.40650 Y52.65630
X54.65110 Y51.41170
X54.65110 Y48.51610
X53.22870 Y47.09370
X53.12710 Y47.14450
X52.33970 Y47.14450
X52.13650 Y47.09370
X51.75550 Y46.89050
X51.50150 Y46.61110
X51.37450 Y46.33170
X51.32370 Y46.07770
X51.32370 Y45.39190
X51.37450 Y45.13790
X51.57770 Y44.75690
X51.75550 Y44.57910
X52.13650 Y44.37590
X52.36510 Y44.32510
X53.10170 Y44.32510
X53.45730 Y44.42670
X53.63510 Y44.52830
X53.66050 Y44.57910
X53.71130 Y44.57910
X53.96530 Y44.85850
X54.11770 Y45.23950
X54.14310 Y46.07770
X54.09230 Y46.23010
X55.71790 Y47.83030
X55.76870 Y47.98270
X55.74330 Y52.04670
X54.09230 Y53.72310
X53.96530 Y53.77390
X37.45530 Y53.77390
X37.32830 Y53.72310
X37.22670 Y53.59610
G04 P0 ( dwell for no time -- G64 should not smooth over this point )
G00 Z2.00000 ( retract )

G00 X37.37910 Y53.59610 ( rapid move to begin. )
F325.00000
G01 Z-0.05000
G04 P0 ( dwell for no time -- G64 should not smooth over this point )
F650.00000
X37.37910 Y53.59610
X31.53710 Y47.75410
X24.01870 Y47.72870
X19.29430 Y43.02970
X19.24350 Y42.87730
X19.26890 Y19.83950
X19.49750 Y19.61090
X19.49750 Y19.56010
X21.27550 Y17.78210
X21.40250 Y17.73130
X21.96130 Y17.73130
X22.01210 Y17.62970
X22.08830 Y17.57890
X22.08830 Y17.52810
X22.31690 Y17.42650
X22.34230 Y17.37570
X22.87570 Y17.35030
X23.48530 Y16.74070
X23.48530 Y16.30890
X23.53610 Y16.15650
X26.86350 Y12.85450
X26.86350 Y12.44810
X26.91430 Y12.29570
X27.09210 Y12.09250
X27.09210 Y12.04170
X27.32070 Y11.94010
X27.34610 Y11.88930
X27.98110 Y11.86390
X28.13350 Y11.88930
X28.15890 Y11.94010
X28.38750 Y12.04170
X28.38750 Y12.09250
X28.53990 Y12.24490
X28.61610 Y12.44810
X28.61610 Y13.03230
X28.53990 Y13.23550
X28.46370 Y13.28630
X28.38750 Y13.43870
X28.28590 Y13.46410
X28.13350 Y13.59110
X27.54930 Y13.61650
X24.67910 Y16.48670
X27.14290 Y16.48670
X27.26990 Y16.53750
X30.14010 Y19.40770
X30.19090 Y19.56010
X30.19090 Y21.92230
X30.36870 Y22.07470
X30.41950 Y22.07470
X30.44490 Y22.17630
X30.57190 Y22.32870
X30.59730 Y22.48110
X30.57190 Y23.11610
X30.52110 Y23.14150
X30.41950 Y23.37010
X30.36870 Y23.37010
X30.21630 Y23.52250
X30.01310 Y23.59870
X29.42890 Y23.59870
X29.22570 Y23.52250
X29.07330 Y23.37010
X29.02250 Y23.37010
X28.99710 Y23.26850
X28.87010 Y23.11610
X28.84470 Y22.48110
X28.87010 Y22.32870
X28.99710 Y22.17630
X29.02250 Y22.07470
X29.07330 Y22.07470
X29.12410 Y21.99850
X29.22570 Y21.94770
X29.22570 Y19.94110
X26.73650 Y17.45190
X24.19650 Y17.45190
X23.61230 Y18.03610
X23.58690 Y18.62030
X23.53610 Y18.72190
X23.45990 Y18.77270
X23.45990 Y18.82350
X23.38370 Y18.87430
X23.38370 Y18.92510
X23.28210 Y18.95050
X23.12970 Y19.07750
X22.49470 Y19.10290
X22.34230 Y19.07750
X22.31690 Y19.02670
X22.08830 Y18.92510
X22.08830 Y18.87430
X21.93590 Y18.69650
X21.80890 Y18.69650
X21.80890 Y18.74730
X20.20870 Y20.32210
X20.20870 Y42.49630
X24.50130 Y46.78890
X31.94350 Y46.78890
X32.07050 Y46.83970
X37.93790 Y52.73250
X53.48270 Y52.73250
X54.72730 Y51.48790
X54.72730 Y48.43990
X53.27950 Y46.99210
X53.05090 Y47.06830
X52.41590 Y47.06830
X52.21270 Y47.01750
X51.83170 Y46.81430
X51.57770 Y46.53490
X51.47610 Y46.33170
X51.39990 Y46.00150
X51.39990 Y45.46810
X51.45070 Y45.21410
X51.65390 Y44.83310
X51.83170 Y44.65530
X52.21270 Y44.45210
X52.44130 Y44.40130
X53.15250 Y44.42670
X53.48270 Y44.55370
X53.83830 Y44.85850
X53.99070 Y45.13790
X54.06690 Y45.46810
X54.06690 Y46.00150
X53.99070 Y46.28090
X55.64170 Y47.90650
X55.69250 Y48.05890
X55.66710 Y51.97050
X54.01610 Y53.64690
X53.88910 Y53.69770
X37.53150 Y53.69770
X37.40450 Y53.64690
X37.37910 Y53.59610
G04 P0 ( dwell for no time -- G64 should not smooth over this point )
G00 Z2.00000 ( retract )

G00 X51.90790 Y51.97050 ( rapid move to begin. )
F325.00000
G01 Z-0.05000
G04 P0 ( dwell for no time -- G64 should not smooth over this point )
F650.00000
X51.90790 Y51.97050
X51.75550 Y51.89430
X51.55230 Y51.69110
X51.39990 Y51.41170
X51.37450 Y51.28470
X41.95110 Y51.28470
X41.82410 Y51.23390
X39.94450 Y49.35430
X39.91910 Y49.27810
X38.64910 Y49.27810
X38.59830 Y49.45590
X38.52210 Y49.50670
X38.44590 Y49.65910
X38.34430 Y49.68450
X38.19190 Y49.81150
X38.03950 Y49.83690
X37.25210 Y49.81150
X37.09970 Y49.68450
X36.99810 Y49.65910
X36.99810 Y49.60830
X36.84570 Y49.45590
X36.76950 Y49.25270
X36.76950 Y48.51610
X36.84570 Y48.31290
X36.99810 Y48.16050
X36.99810 Y48.10970
X37.09970 Y48.08430
X37.25210 Y47.95730
X37.40450 Y47.93190
X38.19190 Y47.95730
X38.34430 Y48.08430
X38.44590 Y48.10970
X38.44590 Y48.16050
X39.89370 Y48.16050
X40.14770 Y47.90650
X40.14770 Y37.77190
X37.20130 Y34.85090
X37.15050 Y34.69850
X37.15050 Y33.73330
X37.04890 Y33.68250
X36.99810 Y33.60630
X36.94730 Y33.60630
X36.84570 Y33.37770
X36.79490 Y33.35230
X36.76950 Y33.19990
X36.79490 Y32.41250
X36.84570 Y32.38710
X36.94730 Y32.15850
X36.99810 Y32.15850
X37.15050 Y32.00610
X37.35370 Y31.92990
X38.09030 Y31.92990
X38.29350 Y32.00610
X38.34430 Y32.08230
X38.49670 Y32.15850
X38.52210 Y32.26010
X38.64910 Y32.41250
X38.67450 Y33.19990
X38.64910 Y33.35230
X38.59830 Y33.37770
X38.49670 Y33.60630
X38.44590 Y33.60630
X38.26810 Y33.75870
X38.26810 Y34.16510
X41.21450 Y37.08610
X41.26530 Y37.23850
X41.26530 Y48.43990
X41.21450 Y48.59230
X41.08750 Y48.71930
X42.50990 Y50.11630
X42.50990 Y50.16710
X51.37450 Y50.16710
X51.55230 Y49.78610
X51.75550 Y49.58290
X52.13650 Y49.37970
X52.36510 Y49.32890
X53.10170 Y49.32890
X53.45730 Y49.43050
X53.63510 Y49.53210
X53.66050 Y49.58290
X53.71130 Y49.58290
X53.96530 Y49.86230
X54.06690 Y50.06550
X54.14310 Y50.39570
X54.11770 Y51.23390
X54.06690 Y51.41170
X53.91450 Y51.69110
X53.55890 Y51.99590
X53.12710 Y52.14830
X52.33970 Y52.14830
X52.00950 Y52.04670
X51.90790 Y51.97050
G04 P0 ( dwell for no time -- G64 should not smooth over this point )
G00 Z2.00000 ( retract )

G00 X52.16190 Y51.97050 ( rapid move to begin. )
F325.00000
G01 Z-0.05000
G04 P0 ( dwell for no time -- G64 should not smooth over this point )
F650.00000
X52.16190 Y51.97050
X51.98410 Y51.91970
X51.62850 Y51.61490
X51.47610 Y51.33550
X51.45070 Y51.20850
X42.02730 Y51.20850
X41.90030 Y51.15770
X40.02070 Y49.27810
X39.99530 Y49.20190
X38.57290 Y49.20190
X38.52210 Y49.37970
X38.44590 Y49.43050
X38.36970 Y49.58290
X38.26810 Y49.60830
X38.11570 Y49.73530
X37.96330 Y49.76070
X37.32830 Y49.73530
X37.17590 Y49.60830
X37.07430 Y49.58290
X37.07430 Y49.53210
X36.92190 Y49.37970
X36.84570 Y49.17650
X36.84570 Y48.59230
X36.92190 Y48.38910
X36.99810 Y48.33830
X37.07430 Y48.18590
X37.17590 Y48.16050
X37.32830 Y48.03350
X37.48070 Y48.00810
X38.11570 Y48.03350
X38.26810 Y48.16050
X38.36970 Y48.18590
X38.36970 Y48.23670
X39.96990 Y48.23670
X40.22390 Y47.98270
X40.22390 Y37.69570
X37.27750 Y34.77470
X37.22670 Y34.62230
X37.22670 Y33.65710
X37.12510 Y33.60630
X37.07430 Y33.53010
X37.02350 Y33.53010
X36.99810 Y33.42850
X36.87110 Y33.27610
X36.84570 Y33.12370
X36.87110 Y32.48870
X36.92190 Y32.46330
X37.02350 Y32.23470
X37.07430 Y32.23470
X37.22670 Y32.08230
X37.42990 Y32.00610
X38.01410 Y32.00610
X38.21730 Y32.08230
X38.26810 Y32.15850
X38.42050 Y32.23470
X38.44590 Y32.33630
X38.57290 Y32.48870
X38.59830 Y33.12370
X38.57290 Y33.27610
X38.52210 Y33.30150
X38.42050 Y33.53010
X38.36970 Y33.53010
X38.19190 Y33.68250
X38.19190 Y34.24130
X41.13830 Y37.16230
X41.18910 Y37.31470
X41.18910 Y48.36370
X41.13830 Y48.51610
X40.93510 Y48.71930
X42.43370 Y50.19250
X42.43370 Y50.24330
X51.45070 Y50.24330
X51.62850 Y49.86230
X51.83170 Y49.65910
X52.21270 Y49.45590
X52.44130 Y49.40510
X53.02550 Y49.40510
X53.48270 Y49.55750
X53.83830 Y49.86230
X53.99070 Y50.14170
X54.04150 Y50.31950
X54.06690 Y51.00530
X54.01610 Y51.25930
X53.88910 Y51.53870
X53.63510 Y51.81810
X53.58430 Y51.81810
X53.48270 Y51.91970
X53.05090 Y52.07210
X52.41590 Y52.07210
X52.21270 Y52.02130
X52.16190 Y51.97050
G04 P0 ( dwell for no time -- G64 should not smooth over this point )
G00 Z2.00000 ( retract )

G00 X51.90790 Y56.94890 ( rapid move to begin. )
F325.00000
G01 Z-0.05000
G04 P0 ( dwell for no time -- G64 should not smooth over this point )
F650.00000
X51.90790 Y56.94890
X51.75550 Y56.87270
X51.50150 Y56.59330
X51.37450 Y56.31390
X51.32370 Y56.05990
X51.34910 Y55.22170
X51.39990 Y55.04390
X51.55230 Y54.76450
X51.90790 Y54.45970
X52.36510 Y54.30730
X53.10170 Y54.30730
X53.45730 Y54.40890
X53.66050 Y54.56130
X53.71130 Y54.56130
X53.96530 Y54.84070
X54.06690 Y55.04390
X54.14310 Y55.37410
X54.11770 Y56.21230
X54.06690 Y56.39010
X53.91450 Y56.66950
X53.55890 Y56.97430
X53.12710 Y57.12670
X52.33970 Y57.12670
X52.00950 Y57.02510
X51.90790 Y56.94890
G04 P0 ( dwell for no time -- G64 should not smooth over this point )
G00 Z2.00000 ( retract )

G00 X52.16190 Y56.94890 ( rapid move to begin. )
F325.00000
G01 Z-0.05000
G04 P0 ( dwell for no time -- G64 should not smooth over this point )
F650.00000
X52.16190 Y56.94890
X51.98410 Y56.89810
X51.95870 Y56.84730
X51.78090 Y56.74570
X51.57770 Y56.51710
X51.45070 Y56.23770
X51.39990 Y55.98370
X51.39990 Y55.45030
X51.45070 Y55.19630
X51.57770 Y54.91690
X51.83170 Y54.63750
X51.88250 Y54.63750
X52.08570 Y54.48510
X52.31430 Y54.40890
X53.02550 Y54.38350
X53.48270 Y54.53590
X53.83830 Y54.84070
X53.99070 Y55.12010
X54.04150 Y55.29790
X54.06690 Y55.98370
X54.01610 Y56.23770
X53.88910 Y56.51710
X53.63510 Y56.79650
X53.25410 Y56.99970
X53.05090 Y57.05050
X52.41590 Y57.05050
X52.21270 Y56.99970
X52.16190 Y56.94890

G04 P0 ( dwell for no time -- G64 should not smooth over this point )
G00 Z20.000 ( retract )

M5 ( Spindle off. )
M9 ( Coolant off. )
M2 ( Program end. )

