( pcb2gcode 1.3.2 )
( Software-independent Gcode )

( This file uses 3 drill bit sizes. )
( Bit sizes: [0.8mm] [1mm] [1.2mm] )

G94       (Millimeters per minute feed rate.)
G21       (Units == Millimeters.)
G91.1     (Incremental arc distance mode.)
G90       (Absolute coordinates.)
S12000     (RPM spindle speed.)

G00 Z20.00000 (Retract)
T1
M5      (Spindle stop.)
(MSG, Change tool bit to drill size 0.80000 mm)
M6      (Tool change.)
M0      (Temporary machine stop.)
M3      (Spindle on clockwise.)

G81 R2.00000 Z-3.00000 F250.00000 X7.71330 Y8.71330
X17.87330 Y8.71330
X17.71330 Y18.21330
X17.87330 Y23.21330
X22.71330 Y18.21330
X24.63330 Y22.71330
X27.17330 Y22.71330
X29.71330 Y22.71330
X32.25330 Y22.71330
X37.71330 Y22.71330
X38.21330 Y15.71330
X38.21330 Y13.71330
X32.71330 Y12.71330
X27.71330 Y12.71330
X38.21330 Y7.71330
X38.21330 Y5.21330
X44.21330 Y4.71330
X44.21330 Y9.71330
X44.21330 Y11.71330
X44.21330 Y16.71330
X37.71330 Y32.87330
X32.21330 Y35.21330
X27.21330 Y35.21330
X28.21330 Y39.05330
X22.21330 Y39.05330
X17.87330 Y37.71330
X24.63330 Y30.33330
X27.17330 Y30.33330
X29.71330 Y30.33330
X32.25330 Y30.33330
X37.71330 Y38.71330
X37.71330 Y48.87330
X28.21330 Y49.21330
X22.21330 Y49.21330
X17.87330 Y52.21330
X7.71330 Y52.21330
X7.71330 Y37.71330
X7.71330 Y23.21330

G00 Z20.00000 (Retract)
T2
M5      (Spindle stop.)
(MSG, Change tool bit to drill size 1.00000 mm)
M6      (Tool change.)
M0      (Temporary machine stop.)
M3      (Spindle on clockwise.)

G81 R2.00000 Z-3.00000 F250.00000 X8.71330 Y13.71330
X8.71330 Y28.21330
X8.71330 Y42.71330
X8.71330 Y57.21330
X25.21330 Y57.21330
X50.46330 Y15.88330
X50.46330 Y13.34330
X50.46330 Y10.80330
X50.46330 Y8.26330
X50.46330 Y5.72330
X53.00330 Y5.72330
X53.00330 Y8.26330
X53.00330 Y10.80330
X53.00330 Y13.34330
X53.00330 Y15.88330

G00 Z20.00000 (Retract)
T3
M5      (Spindle stop.)
(MSG, Change tool bit to drill size 1.20000 mm)
M6      (Tool change.)
M0      (Temporary machine stop.)
M3      (Spindle on clockwise.)

G81 R2.00000 Z-3.00000 F250.00000 X4.21330 Y3.71330
X4.21330 Y8.71330
X4.21330 Y13.71330
X4.21330 Y18.21330
X4.21330 Y23.21330
X4.21330 Y28.21330
X4.21330 Y32.71330
X4.21330 Y37.71330
X4.21330 Y42.71330
X4.21330 Y47.21330
X4.21330 Y52.21330
X4.21330 Y57.21330
X52.71330 Y55.71330
X52.71330 Y50.71330
X52.71330 Y45.71330

G00 Z20.000 ( All done -- retract )

M5      (Spindle off.)
M9      (Coolant off.)
M2      (Program end.)

