( pcb2gcode 1.3.2 )
( Software-independent Gcode )

G94 ( Millimeters per minute feed rate. )
G21 ( Units == Millimeters. )

G90 ( Absolute coordinates. )
S14000 ( RPM spindle speed. )
G64 P0.05080 ( set maximum deviation from commanded toolpath )
F800.00000 ( Feedrate. )

F800.00000 ( Feedrate. )
M3 ( Spindle on clockwise. )
G04 P0 ( dwell for no time -- G64 should not smooth over this point )
G00 Z2.00000 ( retract )

G00 X0.14270 Y59.71750 ( rapid move to begin. )
G01 Z-0.83333 F400.00000 ( plunge. )
G04 P0 ( dwell for no time -- G64 should not smooth over this point )
F800.00000
X0.14270 Y59.71750
X0.14270 Y31.93620
Z-0.05000
X0.14270 Y27.96120
Z-0.83333 F400.00000
F800.00000X0.14270 Y0.17990
X0.19350 Y0.12910
X26.99690 Y0.12910
Z-0.05000
X30.97190 Y0.12910
Z-0.83333 F400.00000
F800.00000X57.77530 Y0.12910
X57.82610 Y0.17990
X57.82610 Y28.73590
Z-0.05000
X57.82610 Y32.71090
Z-0.83333 F400.00000
F800.00000X57.82610 Y61.26690
X57.77530 Y61.31770
X30.97190 Y61.31770
Z-0.05000
X26.99690 Y61.31770
Z-0.83333 F400.00000
F800.00000X0.19350 Y61.31770
X0.14270 Y61.26690
X0.14270 Y59.71750
G01 Z-1.66667 F400.00000 ( plunge. )
G04 P0 ( dwell for no time -- G64 should not smooth over this point )
F800.00000
X0.14270 Y59.71750
X0.14270 Y31.93620
Z-0.05000
X0.14270 Y27.96120
Z-1.66667 F400.00000
F800.00000X0.14270 Y0.17990
X0.19350 Y0.12910
X26.99690 Y0.12910
Z-0.05000
X30.97190 Y0.12910
Z-1.66667 F400.00000
F800.00000X57.77530 Y0.12910
X57.82610 Y0.17990
X57.82610 Y28.73590
Z-0.05000
X57.82610 Y32.71090
Z-1.66667 F400.00000
F800.00000X57.82610 Y61.26690
X57.77530 Y61.31770
X30.97190 Y61.31770
Z-0.05000
X26.99690 Y61.31770
Z-1.66667 F400.00000
F800.00000X0.19350 Y61.31770
X0.14270 Y61.26690
X0.14270 Y59.71750
G01 Z-2.50000 F400.00000 ( plunge. )
G04 P0 ( dwell for no time -- G64 should not smooth over this point )
F800.00000
X0.14270 Y59.71750
X0.14270 Y31.93620
Z-0.05000
X0.14270 Y27.96120
Z-2.50000 F400.00000
F800.00000X0.14270 Y0.17990
X0.19350 Y0.12910
X26.99690 Y0.12910
Z-0.05000
X30.97190 Y0.12910
Z-2.50000 F400.00000
F800.00000X57.77530 Y0.12910
X57.82610 Y0.17990
X57.82610 Y28.73590
Z-0.05000
X57.82610 Y32.71090
Z-2.50000 F400.00000
F800.00000X57.82610 Y61.26690
X57.77530 Y61.31770
X30.97190 Y61.31770
Z-0.05000
X26.99690 Y61.31770
Z-2.50000 F400.00000
F800.00000X0.19350 Y61.31770
X0.14270 Y61.26690
X0.14270 Y59.71750

G04 P0 ( dwell for no time -- G64 should not smooth over this point )
G00 Z20.000 ( retract )

M5 ( Spindle off. )
M9 ( Coolant off. )
M2 ( Program end. )

